!!!!SEGMENT: pl-sa--l-1643--053_anonim--exultate-deo-adiutori-nostro.krn
!!!cenid: 16xx:1411
!!!COM: Anonim
!!!COM-rismid: pe30004985
!!!CDT:
!!!CNT:
!!!OTL: Exultate Deo adiutori nostro
!!!PDT:
!!!AGN: Sacred
!!!SMS-siglum: PL-SA
!!!SMS-shelfmark: L 1643
!!!SMS-shelfwork: 053 W
!!!SMS-variant:
!!!SMS-altvar:
!!!NIFC-rismid: 1001064096
!!!system-decoration: [(s1,s2,s3,s4)][(s5,s6,s7,s8)]
**kern	**text	**kern	**text	**kern	**text	**kern	**text	**kern	**text	**kern	**text	**kern	**text	**kern	**text
*part8	*part8	*part7	*part7	*part6	*part6	*part5	*part5	*part4	*part4	*part3	*part3	*part2	*part2	*part1	*part1
*staff8	*staff8	*staff7	*staff7	*staff6	*staff6	*staff5	*staff5	*staff4	*staff4	*staff3	*staff3	*staff2	*staff2	*staff1	*staff1
*I"Baſsus 2di Chori	*	*I"Altus secundi Chori.	*	*I"Cantus 2dus Secundi Chori.	*	*I"Primus Cantus 2di Chori	*	*I"Bassus Primi Chori.	*	*I"Cantus 3tius Primi Chori	*	*I"Cantus 2dus Primi Chori.	*	*I"Imo Cantus Primi Chori	*
*I'B.	*	*I'A.	*	*I'C. 2	*	*I'C. 1	*	*I'B.	*	*I'C. 3	*	*I'C. 2	*	*I'C. 1	*
*clefC3	*	*clefC2	*	*clefC1	*	*clefG2	*	*clefC4	*	*clefC2	*	*clefC1	*	*clefG2	*
*k[b-]	*	*k[b-]	*	*k[b-]	*	*k[b-]	*	*k[b-]	*	*k[b-]	*	*k[b-]	*	*k[b-]	*
*C:	*	*C:	*	*C:	*	*C:	*	*C:	*	*C:	*	*C:	*	*C:	*
*M3/1	*	*M3/1	*	*M3/1	*	*M3/1	*	*M3/1	*	*M3/1	*	*M3/1	*	*M3/1	*
=1-	=1-	=1-	=1-	=1-	=1-	=1-	=1-	=1-	=1-	=1-	=1-	=1-	=1-	=1-	=1-
!!LO:TX:t=P:problem:w źródle metrum trójdzielne zapisane jako 3/2, ale ze względu na podział nut w taktach transkrybujemy jako 3/1:global
!LO:TX:a:t=P:W źródle przed znakiem przykluczowym dodatkowo metrum 2/2 [nieuwzględnione w kodzie]:problem	!	!LO:TX:a:t=P:W źródle przed znakiem przykluczowym dodatkowo metrum 2/2 [nieuwzględnione w kodzie]:problem	!	!LO:TX:a:t=P:W źródle przed znakiem przykluczowym dodatkowo metrum 2/2 [nieuwzględnione w kodzie]:problem	!	!	!	!	!	!	!	!	!	!	!
!LO:TX:t=P:problem:w źródle inicjał E (w kolorze czerwonym) na początku pięciolinii	!	!LO:TX:t=P:problem:w źródle inicjał E (w kolorze czerwonym) na początku pięciolinii	!	!	!	!	!	!	!	!	!	!	!	!	!
!	!	!	!	!LO:TX:t=P:problem:w źródle inicjał E (w kolorze czerwonym) na początku pięciolinii	!	!LO:TX:t=P:problem:w źródle inicjał E (w kolorze czerwonym) na początku pięciolinii	!	!	!	!	!	!	!	!	!
!	!	!	!	!	!	!	!	!LO:TX:a:t=P:W źródle przed znakiem przykluczowym dodatkowo metrum 2/2 [nieuwzględnione w kodzie]:problem	!	!	!	!	!	!LO:TX:a:t=P:W źródle przed znakiem przykluczowym dodatkowo metrum 2/2 [nieuwzględnione w kodzie]:problem	!
!	!	!	!	!	!	!	!	!	!	!LO:TX:a:t=P:W źródle przed znakiem przykluczowym dodatkowo metrum 2/2 [nieuwzględnione w kodzie]:problem	!	!LO:TX:a:t=P:W źródle przed znakiem przykluczowym dodatkowo metrum 2/2 [nieuwzględnione w kodzie]:problem	!	!	!
!	!	!	!	!	!	!	!	!LO:TX:t=P:problem:w źródle inicjał E (w kolorze czerwonym) na początku pięciolinii	!	!LO:TX:t=P:problem:w źródle inicjał E (w kolorze czerwonym) na początku pięciolinii	!	!	!	!	!
!	!	!	!	!	!	!	!	!	!	!	!	!LO:TX:t=P:problem:w źródle inicjał E (w kolorze czerwonym) na początku pięciolinii	!	!LO:TX:t=P:problem:w źródle inicjał E (w kolorze czerwonym) na początku pięciolinii	!
00.r	.	00.r	.	00.r	.	00.r	.	0c	E-	0g	E-	0cc	E-	0ee	E-
.	.	.	.	.	.	.	.	1c	-xul-	1g	-xul-	1cc	-xul-	1ee	-xul-
=2-	=2-	=2-	=2-	=2-	=2-	=2-	=2-	=2-	=2-	=2-	=2-	=2-	=2-	=2-	=2-
.	.	.	.	.	.	.	.	0c	-ta-	0g	-ta-	0cc	-ta-	0ee	-ta-
!	!	!	!	!	!	!	!	!	!	!	!	!LO:TX:a:t=P:w źródle krzyżyk w roli kasownika:problem	!	!	!
!	!	!	!	!	!	!	!	!	!	!	!	!LO:TX:t=P:problem:# above	!	!	!
!	!	!	!	!	!	!	!	!	!	!	!	!LO:N:acc=#	!	!	!
.	.	.	.	.	.	.	.	1G	-te	1g	-te	1bn	-te	1dd	-te
=3-	=3-	=3-	=3-	=3-	=3-	=3-	=3-	=3-	=3-	=3-	=3-	=3-	=3-	=3-	=3-
00.r	.	00.r	.	00.r	.	00.r	.	0c	De-	0g	De-	0cc	De-	0ee	De-
.	.	.	.	.	.	.	.	1c	-o	1g	-o	1cc	-o	1ee	-o
=4-	=4-	=4-	=4-	=4-	=4-	=4-	=4-	=4-	=4-	=4-	=4-	=4-	=4-	=4-	=4-
.	.	.	.	.	.	.	.	1.F	ad-	1.a	ad-	1.cc	ad-	1.ff	ad-
.	.	.	.	.	.	.	.	2C/	-iu-	2g\	-iu-	2cc\	-iu-	2ff\	-iu-
.	.	.	.	.	.	.	.	1D	-to-	1f	-to-	1a	-to-	1dd	-to-
=5-	=5-	=5-	=5-	=5-	=5-	=5-	=5-	=5-	=5-	=5-	=5-	=5-	=5-	=5-	=5-
0.r	.	0.r	.	0.r	.	0.r	.	1E	-ri	1e	-ri	(>1g	-ri	1cc	-ri
.	.	.	.	.	.	.	.	(>1F	no-	0d	nos-	1a)	.	1cc	no-
!	!	!	!	!	!	!	!	!	!	!	!	!	!	!LO:TX:a:t=P:w źródle krzyżyk w roli kasownika:problem	!
!	!	!	!	!	!	!	!	!	!	!	!	!	!	!LO:TX:t=P:problem:# above	!
!	!	!	!	!	!	!	!	!	!	!	!	!	!	!LO:N:acc=#	!
.	.	.	.	.	.	.	.	1G	.	.	.	1g	nos-	1bn	.
=6-	=6-	=6-	=6-	=6-	=6-	=6-	=6-	=6-	=6-	=6-	=6-	=6-	=6-	=6-	=6-
0c	E-	0g	E-	0cc	E-	0ee	E-	0.C)	-stro	0.e	-tro,	0.g	-tro	0.cc	-stro
1c	-xul-	1g	-xul-	1cc	-xul-	1ee	-xul-	.	.	.	.	.	.	.	.
=7-	=7-	=7-	=7-	=7-	=7-	=7-	=7-	=7-	=7-	=7-	=7-	=7-	=7-	=7-	=7-
0c	-ta-	0g	-ta-	0cc	-ta-	0ee	-ta-	00.r	.	00.r	.	00.r	.	00.r	.
!	!	!	!	!LO:TX:a:t=P:w źródle krzyżyk w roli kasownika:problem	!	!	!	!	!	!	!	!	!	!	!
!	!	!	!	!LO:TX:t=P:problem:# below	!	!	!	!	!	!	!	!	!	!	!
!	!	!	!	!LO:N:acc=#	!	!	!	!	!	!	!	!	!	!	!
1G	-te	1g	-te	1bn	-te	1dd	-te	.	.	.	.	.	.	.	.
=8-	=8-	=8-	=8-	=8-	=8-	=8-	=8-	=8-	=8-	=8-	=8-	=8-	=8-	=8-	=8-
0c	De-	0g	De-	0cc	De-	0ee	De-	.	.	.	.	.	.	.	.
1c	-o	1g	-o	1cc	-o	1ee	-o	.	.	.	.	.	.	.	.
=9-	=9-	=9-	=9-	=9-	=9-	=9-	=9-	=9-	=9-	=9-	=9-	=9-	=9-	=9-	=9-
!	!	!	!	!	!	!	!	!	!	!	!	!LO:SIC:v:t=custos g	!	!	!
1.c	ad-	1.g	ad-	1.cc	ad-	1.ee	ad-	00.r	.	00.r	.	00.r	.	00.r	.
2G/	-iu-	2b-\	-iu-	2dd\	-iu-	2gg\	-iu-	.	.	.	.	.	.	.	.
1A	-to-	1a	-to-	1cc	-to-	1ff	-to-	.	.	.	.	.	.	.	.
=10-	=10-	=10-	=10-	=10-	=10-	=10-	=10-	=10-	=10-	=10-	=10-	=10-	=10-	=10-	=10-
1B-	-ri	1g	-ri	1b-y	-ri	1dd	-ri	.	.	.	.	.	.	.	.
(>1c	no-	1g	no-	0a	nos-	(>1ee	nos-	.	.	.	.	.	.	.	.
!	!	!LO:TX:t=P:problem:# above	!	!	!	!	!	!	!	!	!	!	!	!	!
1d)	.	1f#X	.	.	.	1dd)	.	.	.	.	.	.	.	.	.
!	!	!	!	!	!	!	!	!	!	!	!	!LO:LB:g=original	!	!	!
=11-	=11-	=11-	=11-	=11-	=11-	=11-	=11-	=11-	=11-	=11-	=11-	=11-	=11-	=11-	=11-
!	!	!	!	!	!	!	!	!	!	!LO:TX:t=P:problem:w źródle kropka przy nucie jest niewidoczna.	!	!	!	!	!
0.G	-stro.	0.g	-stro,	0.b-	-tro,	0.dd	-tro	1.G	Ju-	1.d	Ju-	1.g	Ju-	1.b-	Ju-
!	!	!	!	!	!	!	!	!	!	!	!	!	!	!LO:SIC:v:t=custos b-	!
.	.	.	.	.	.	.	.	2G/	-bi-	2d/	-bi-	2g/	-bi-	2b-/	-bi-
!	!	!	!	!	!	!	!	!	!	!	!	!	!	!LO:LB:g=original	!
*	*	*	*	*	*	*	*	*	*	*	*	*	*	*M3/1	*
!	!	!	!	!	!	!	!	!	!	!	!	!	!	!LO:TX:t=P:problem:przed nutą powtórzone metrum	!
.	.	.	.	.	.	.	.	2G/	-la-	2d/	-la-	2g/	-la-	2b-/	-la-
!	!	!	!	!	!	!	!	!LO:SIC:v:t=custos c	!	!LO:SIC:v:t=custos e	!	!	!	!	!
.	.	.	.	.	.	.	.	2G/	-te	2d/	-te	2g/	-te	2b-/	-te
!	!	!	!	!	!	!	!	!LO:LB:g=original	!	!LO:LB:g=original	!	!	!	!	!
=12-	=12-	=12-	=12-	=12-	=12-	=12-	=12-	=12-	=12-	=12-	=12-	=12-	=12-	=12-	=12-
1.c	Ju-	1.g	Ju-	1.cc	Ju-	1.ee	Ju-	0c	De-	0e	De-	0g	De-	0cc	De-
2c/	-bi-	2g\	-bi-	2cc\	-bi-	2ee\	-bi-	.	.	.	.	.	.	.	.
2c/	-la-	2e/	-la-	2cc\	-la-	2gg\	-la-	1c	-o	1e	-o	1g	-o,	1cc	-o
2c/	-te	2e/	-te	2cc\	-te	2gg\	-te	.	.	.	.	.	.	.	.
!	!	!LO:LB:g=original	!	!	!	!	!	!	!	!	!	!	!	!	!
=13-	=13-	=13-	=13-	=13-	=13-	=13-	=13-	=13-	=13-	=13-	=13-	=13-	=13-	=13-	=13-
0f	De-	0c	De-	0a	De-	0ff	De-	1.F	Ju-	1.f	Ju-	1.a	Ju-	1.cc	iu-
.	.	.	.	.	.	.	.	2F/	-bi-	2f\	-bi-	2a\	-bi-	2cc\	-bi-
!LO:SIC:v:t=custos B-	!	!	!	!	!	!LO:SIC:v:t=custos dd	!	!	!	!	!	!	!	!	!
1f	-o	1c	-o	1a	-o	1ff;>	-o	2F/	-la-	2f\	-la-	2a\	-la-	2cc\	-la-
.	.	.	.	.	.	.	.	2F/	-te	2f\	-te	2a\	-te	2cc\	-te
!LO:LB:g=original	!	!	!	!	!	!LO:LB:g=original	!	!	!	!	!	!	!	!	!
=14-	=14-	=14-	=14-	=14-	=14-	=14-	=14-	=14-	=14-	=14-	=14-	=14-	=14-	=14-	=14-
*	*	*	*	*	*	*	*	*	*	*lig	*	*lig	*	*	*
!	!	!	!	!LO:SIC:v:t=custos b-	!	!	!	!	!	!	!	!	!	!	!
00.r	.	00.r	.	00.r	.	00.r	.	0B-	De	(>1f	De-	1f	De-	0dd	De-
.	.	.	.	.	.	.	.	.	.	1d)	.	1g	.	.	.
*	*	*	*	*	*	*	*	*	*	*Xlig	*	*Xlig	*	*	*
.	.	.	.	.	.	.	.	1G	.	1d	-o	1g	-o	1b-	-o
=15-	=15-	=15-	=15-	=15-	=15-	=15-	=15-	=15-	=15-	=15-	=15-	=15-	=15-	=15-	=15-
.	.	.	.	.	.	.	.	1E-X	Ja-	0.c	Ja-	0.f	Ja-	0b-	Ja-
.	.	.	.	.	.	.	.	0F	.	.	.	.	.	.	.
.	.	.	.	.	.	.	.	.	.	.	.	.	.	1a	.
!	!	!	!	!LO:LB:g=original	!	!	!	!	!	!	!	!	!	!	!
=16-	=16-	=16-	=16-	=16-	=16-	=16-	=16-	=16-	=16-	=16-	=16-	=16-	=16-	=16-	=16-
*M2/2	*	*M2/2	*	*M2/2	*	*M2/2	*	*M2/2	*	*M2/2	*	*M2/2	*	*M2/2	*
*met(c|)	*	*met(c|)	*	*met(c|)	*	*met(c|)	*	*met(c|)	*	*met(c|)	*	*met(c|)	*	*met(c|)	*
2r	.	2r	.	2r	.	2r	.	1B-X	-cob	1d	-cob	1f	-cob	1b-	-cob
!	!	!LO:TX:t=P:problem:w źródle nuta niewidoczna	!	!	!	!	!	!	!	!	!	!	!	!	!
4B-/	ſu-	4f\yy	ſu-	4b-\	ſu-	4dd\	ſu-	.	.	.	.	.	.	.	.
8B-/	-mi-	8f\	-mi-	8b-\	-mi-	8dd\	-mi-	.	.	.	.	.	.	.	.
8B-/	-te	8f\	-te	8b-\	-te	8dd\	-te	.	.	.	.	.	.	.	.
=17-	=17-	=17-	=17-	=17-	=17-	=17-	=17-	=17-	=17-	=17-	=17-	=17-	=17-	=17-	=17-
4F/	psal-	4f\	psal-	4a\	psal-	4cc\	psal-	4F/	ſu-	4c/	ſu-	4a\	ſu-	4ff\	ſu-
!	!	!LO:TX:t=P:problem:kreska oddechu na różnych liniach [rozdzielacz słów / znak oddechu]:global	!	!	!	!	!	!	!	!	!	!	!	!	!
!	!	!	!	!LO:TX:t=P:problem:kreska oddechu na różnych liniach [rozdzielacz słów / znak oddechu]:global	!	!LO:TX:t=P:problem:kreska oddechu na różnych liniach [rozdzielacz słów / znak oddechu]:global	!	!	!	!	!	!	!	!	!
4F/	-mum,	4c,</	-mum,	4f,</	-mum,	4cc,<\	-mum,	8F/	-mi-	8c/	-mi-	8a\	-mi-	8ff\	-mi-
.	.	.	.	.	.	.	.	8F/	-te	8c/	-te	8a\	-te	8ff\	-te
*	*ij	*	*ij	*	*ij	*	*ij	*	*	*	*	*	*	*	*
4c\	ſu-	4e\	ſu-	4g/	ſu-	4cc\	ſu-	4C/	psal-	4c/	pſal-	4g/	psal-	4ee\	psal-
!	!	!	!	!	!	!	!	!	!	!LO:TX:t=P:problem:kreska oddechu na różnych liniach [rozdzielacz słów / znak oddechu]:global	!	!	!	!	!
!	!	!	!	!	!	!	!	!	!	!	!	!	!	!LO:TX:t=P:problem:kreska oddechu na różnych liniach [rozdzielacz słów / znak oddechu]:global	!
!	!	!	!	!	!	!	!	!	!	!	!	!	!	!LO:TX:t=P:problem:kreska pseudotaktowa	!
8c\	-mi-	8e\	-mi-	8g/	-mi-	8cc\	-mi-	4C/	-mum,	4c,</	-mum,	4g/	-mu(m)	4ee,<\	-mum,
8c\	-te	8e\	-te	8g/	-te	8cc\	-te	.	.	.	.	.	.	.	.
=18-	=18-	=18-	=18-	=18-	=18-	=18-	=18-	=18-	=18-	=18-	=18-	=18-	=18-	=18-	=18-
*	*	*	*	*	*	*	*	*	*ij	*	*ij	*	*	*	*ij
4G/	psal-	4d/	psal-	4g/	psal-	4b-/	psal-	4G/	ſu-	4d/	ſu-	4b-X\	ſu-	4gg\	ſu-
4G/	-mum,	4d/	-mum,	4g,</	-mum,	4b-,</	-mum	8G/	-mi-	8d/	-mi-	8b-\	-mi-	8gg\	-mi-
!	!	!	!	!	!	!	!	!	!	!	!	!LO:SIC:v:t=custos a	!	!	!
.	.	.	.	.	.	.	.	8G/	-te	8d/	-te	8b-\	-te	8gg\	-te
*	*Xij	*	*Xij	*	*Xij	*	*Xij	*	*	*	*	*	*	*	*
*	*	*	*ij	*	*ij	*	*ij	*	*	*	*	*	*	*	*
!	!	!	!	!	!	!	!	!	!	!	!	!LO:LB:g=original	!	!	!
4d\	ſu-	4f\	ſu-	4a\	ſu-	4dd\	ſu-	4D/	psal-	4d/	psal-	4a\	psal-	4ff\	psal-
!	!	!	!	!	!	!	!	!	!	!	!	!	!	!LO:TX:t=P:problem:kreska pseudotaktowa	!
8d\	-mi-	8f\	-mi-	8a\	-mi-	8dd\	-mi-	4D/	-mum,	4d/	-mum	4a\	-mum,	4ff\	-mum
8d\	-te	8f\	-te	8a\	-te	8dd\	-te	.	.	.	.	.	.	.	.
*	*	*	*	*	*	*	*	*	*Xij	*	*Xij	*	*	*	*Xij
=19-	=19-	=19-	=19-	=19-	=19-	=19-	=19-	=19-	=19-	=19-	=19-	=19-	=19-	=19	=19
*	*	*	*	*	*	*	*	*	*ij	*	*ij	*	*ij	*	*
!	!	!LO:TX:t=P:problem:w źródle nuta niewidoczna	!	!	!	!	!	!	!	!	!	!	!	!LO:SIC:v:t=custos ee	!
!	!	!	!	!	!	!LO:TX:t=P:problem:# above	!	!	!	!	!	!	!	!	!
4c/	psal-	4d/yy	psal-	4a\	psal-	4cc#X\	psal-	4A/	ſu-	4e/	ſu-	4cc\	ſu-	4aa\	ſu-
!	!	!	!	!	!	!	!	!	!	!	!	!	!	!LO:LB:g=original	!
!	!	!	!	!	!	!LO:TX:t=P:problem:# above	!	!	!	!	!	!	!	!	!
4c/	-mum	4e/	-mum,	4a\	-mum,	4cc#X\	-mum	8A/	-mi-	8a\	-mi-	8cc\	-mi-	8ee\	-mi-
.	.	.	.	.	.	.	.	8A/	-te	8a\	-te	8cc\	-te	8ee\	-te
*	*	*	*Xij	*	*Xij	*	*Xij	*	*	*	*	*	*	*	*
4r	.	4r	.	4r	.	4r	.	4D/	psal-	4a\	psal-	4dd\	psal-	4ff\	psal-
!LO:TX:t=P:problem:kreska pseudotaktowa	!	!	!	!	!	!	!	!	!	!	!	!	!	!LO:TX:t=P:problem:kreska pseudotaktowa	!
4d\	et	4f\	et	4a\	et	4dd\	et	4D/	-mum	4a\	-mum	4dd\	-mum	4ff\	-mum
*	*	*	*	*	*	*	*	*	*Xij	*	*Xij	*	*Xij	*	*
=20	=20	=20-	=20-	=20-	=20-	=20-	=20-	=20-	=20-	=20-	=20-	=20-	=20-	=20	=20
!	!	!	!	!	!	!	!	!LO:SIC:v:t=custos c	!	!LO:SIC:v:t=custos e	!	!	!	!	!
4.c/	da-	4.g\	da-	4.cc\	da-	4.ee\	da-	2r	.	2r	.	2r	.	2r	.
8A/	-te	8a\	-te	8cc\	-te	8ff\	-te	.	.	.	.	.	.	.	.
!	!	!	!	!	!	!	!	!LO:PB:g=original	!	!LO:PB:g=original	!	!	!	!	!
4B-/	tÿm-	4g\	tym-	4dd\	tÿm-	4ff\	tÿm-	4r	.	4r	.	4r	.	4r	.
!	!	!	!	!	!	!	!	!LO:TX:t=P:problem:kreska pseudotaktowa	!	!LO:TX:t=P:problem:kreska pseudotaktowa	!	!	!	!LO:TX:t=P:problem:kreska pseudotaktowa	!
4c/	-pa-	4g\	-pa-	4dd\	-pa-	4ee\	-pa-	4c\	et	4e/	et	4cc\	et	4gg\	et
=21-	=21-	=21-	=21-	=21-	=21-	=21-	=21-	=21	=21	=21	=21	=21-	=21-	=21	=21
2F/	-num	2a\	-num	2cc\	-num,	2ff\	-num,	4.f\	da-	4.a\	da-	4.cc\	da-	4.ff\	da-
.	.	.	.	.	.	.	.	8d\	-te	8g\	-te	8a\	-te	8ff\	-te
4r	.	4r	.	4r	.	4r	.	4B-\	tÿm-	4f\	tym-	4b-X\	tym-	4dd\	tÿ-
*	*ij	*	*	*	*ij	*	*ij	*	*	*	*	*	*	*	*
!	!	!	!	!	!	!	!	!	!	!	!	!	!	!LO:TX:t=P:problem:kreska pseudotaktowa	!
4c/	et	4e/	et	4cc\	et	4gg\	et	4c\	-pa-	4e/	-pa-	4g/	-pa-	4cc\	-pa-
=22-	=22-	=22-	=22-	=22-	=22-	=22-	=22-	=22-	=22-	=22-	=22-	=22-	=22-	=22	=22
!	!	!	!	!	!	!	!	!	!	!	!	!	!	!LO:TX:t=P:problem:w źródle wysokość nuty była korygowana skośnymi "łapkami" w górę oraz dopisaniem drugiej caudy u góry	!
4.f\	da-	4.a\	da-	4.cc\	da-	4.ff\	da-	2F/	-num,	2f\	-num	2a\	-num	2cc\	-num
!LO:SIC:v:t=custos B-	!	!LO:SIC:v:t=custos b-	!	!	!	!	!	!	!	!	!	!	!	!	!
8d\	-te	8a\	-te	8dd\	-te	8ff\	-te	.	.	.	.	.	.	.	.
!LO:LB:g=original	!	!LO:LB:g=original	!	!	!	!	!	!	!	!	!	!	!	!	!
4B-/	tÿm-	4b-\	tÿm-	4dd\	tÿm-	4ff\	tÿm-	4r	.	4r	.	4r	.	4r	.
*	*	*	*	*	*	*	*	*	*ij	*	*	*	*	*	*ij
!	!	!	!	!	!	!	!	!	!	!	!	!	!	!LO:TX:t=P:problem:kreska pseudotaktowa	!
4c/	-pa-	4g\	-pa-	4cc\	-pa-	4ee\	-pa-	4c\	et	4e/	et	4cc\	et	4gg\	et
=23-	=23-	=23-	=23-	=23-	=23-	=23-	=23-	=23-	=23-	=23-	=23-	=23-	=23-	=23	=23
!	!	!	!	!	!	!LO:SIC:v:t=custos ff	!	!	!	!	!	!	!	!	!
2F/	-num	2a\	-num	2cc\	-num	2ff\	-num	4.f\	da-	4.a\	da-	4.cc\	da-	4.ff\	da-
.	.	.	.	.	.	.	.	8d\	-te	8g\	-te	8a\	-te	8ff\	-te
*	*Xij	*	*	*	*Xij	*	*Xij	*	*	*	*	*	*	*	*
!	!	!	!	!	!	!LO:PB:g=original	!	!	!	!	!	!	!	!	!
!	!	!LO:TX:t=P:problem:w źródle pauza niewidoczna	!	!	!	!	!	!	!	!	!	!	!	!	!
2r	.	2ryy	.	2r	.	2r	.	4B-\	tÿm-	4f\	tim-	4b-\	tÿm-	4dd\	tÿ-
!	!	!	!	!	!	!	!	!	!	!	!	!	!	!LO:TX:t=P:problem:kreska pseudotaktowa	!
.	.	.	.	.	.	.	.	4c\	-pa-	4e/	-pa-	4g/	-pa-	4cc\	-pa-
=24-	=24-	=24-	=24-	=24-	=24-	=24-	=24-	=24-	=24-	=24-	=24-	=24-	=24-	=24	=24
2r	.	2r	.	2r	.	2r	.	2F/	-num	2f\	-num	2a\	-num	2cc\	-num
*	*	*	*	*	*	*	*	*	*Xij	*	*	*	*	*	*Xij
4r	.	4r	.	4r	.	4r	.	4r	.	4r	.	4r	.	4r	.
!	!	!	!	!LO:SIC:v:t=custos b-	!	!	!	!LO:TX:t=P:problem:kreska pseudotaktowa	!	!LO:TX:t=P:problem:kreska pseudotaktowa	!	!	!	!LO:TX:t=P:problem:kreska pseudotaktowa	!
!	!	!	!	!	!	!	!	!	!	!	!	!LO:TX:t=P:problem:w źródle po nucie 4a\ bemol o jedną nutę wyżej	!	!	!
4F/	psal-	4A/	psal-	4cc\	psal-	4ff\	psal-	4F/	psal-	4f\	psal-	4a\	psal-	4cc\	psal-
!	!	!	!	!LO:PB:g=original	!	!	!	!	!	!	!	!	!	!	!
=25-	=25-	=25-	=25-	=25-	=25-	=25-	=25-	=25	=25	=25	=25	=25-	=25-	=25	=25
8B-/	-te-	8d/	-te-	8b-\	-te-	8ff\	-te-	8B-\	-te-	8f\	-te-	8b-\	-te-	8dd\	-te-
!	!	!	!	!	!	!	!	!	!	!	!	!LO:SIC:v:t=custos b-	!	!	!
8B-/	-ri-	8d/	-ri-	8b-\	-ri-	8ff\	-ri-	8B-\	-ri-	8f\	-ri-	8b-\	-rium	8dd\	-ri-
!	!	!	!	!	!	!	!	!	!	!	!	!LO:LB:g=original	!	!	!
8B-/	-um	8d/	-um	8b-\	-um	8ff\	-um	8B-\	-um	8f\	-um	8b-\	.	8dd\	-um
8B-/	iu-	8d/	iu-	8b-\	iu-	8ff\	iu-	8B-\	iu-	8f\	iu-	8b-\	iu-	8dd\	iu-
4B-/	-cun-	4d/	-cun-	4b-\	-cun-	4ff\	-cun-	4B-\	-cun-	4f\	-cun-	4b-\	-cun-	4dd\	-cun-
8B-/	-dum	8f\	-dum	8f/	-dum	8b-/	-du(m)	8B-\	-dum	8f\	-dum	8b-\	-dum	8dd\	-dum
!	!	!	!	!	!	!	!	!	!	!	!	!	!	!LO:TX:t=P:problem:kreska pseudotaktowa	!
8B-/	cum	8f\	cum	8f/	cum	8b-/	cum	8B-\	cum	8d/	Cum	8b-\	cum	8dd\	cum
=26-	=26-	=26-	=26-	=26-	=26-	=26-	=26-	=26-	=26-	=26-	=26-	=26-	=26-	=26	=26
4.F/	Cy-	4.f\	Cÿ-	4.a\	Cy-	4.ccny\	Cÿ-	4.F/	Cy-	4.c/	Cÿ-	4.a\	Cy-	4.ff\	Cy-
8F/	-tha-	8f\	-tha-	8a\	-tha-	8cc\	-tha-	8F/	-tha-	8c/	-tha-	8a\	-tha-	8ff\	-tha-
!	!	!	!	!	!	!	!	!LO:TX:t=P:problem:kreska pseudotaktowa	!	!LO:TX:t=P:problem:kreska pseudotaktowa	!	!LO:TX:t=P:problem:kreska pseudotaktowa	!	!	!
!	!	!	!	!	!	!	!	!	!	!	!	!	!	!LO:SIC:v:t=custos dd	!
2F/	-ra,	2f\	-ra,	2a\	-ra,	2cc\	-ra	2F/	-ra,	2c/	-ra	2a\	-ra,	2ff\	-ra
!	!	!	!	!	!	!	!	!	!	!	!	!	!	!LO:LB:g=original	!
=27-	=27-	=27-	=27-	=27-	=27-	=27-	=27-	=27	=27	=27	=27	=27	=27	=27-	=27-
4r	.	4r	.	4r	.	4r	.	4r	.	4r	.	4r	.	4r	.
*	*ij	*	*	*	*ij	*	*	*	*	*	*	*	*	*	*
4d\	psal-	4d/	psal-	4a\	psal-	4ff\	psal-	4d\	psal-	4f\	psal-	4a\	psal-	4dd\	psal-
8d\	-te-	8d/	-te-	8a\	-te-	8ff\	-te-	8d\	-te-	8f\	-te-	8a\	-te-	8dd\	-te-
!	!	!	!	!	!	!	!	!LO:SIC:v:t=custos d	!	!LO:SIC:v:t=custos f	!	!	!	!	!
8d\	-ri-	8d/	-ri-	8a\	-ri-	8ff\	-ri-	8d\	-ri-	8f\	-ri-	8a\	-ri-	8dd\	-ri-
!	!	!	!	!	!	!	!	!LO:LB:g=original	!	!LO:LB:g=original	!	!	!	!	!
8d\	-um	8d/	-um	8a\	-um	8ff\	-um	8d\	-um	8f\	-um	8a\	-um	8dd\	-um
!	!	!	!	!	!	!	!	!	!	!	!	!	!	!LO:TX:t=P:problem:kreska pseudotaktowa	!
8d\	iu-	8A/	iu-	8a\	iu-	8dd\	iu-	8d\	iu-	8f\	iu-	8a\	iu-	8dd\	iu-
=28-	=28-	=28-	=28-	=28-	=28-	=28-	=28-	=28-	=28-	=28-	=28-	=28-	=28-	=28	=28
!	!	!	!	!	!	!	!	!	!	!	!	!	!	!LO:TX:t=P:problem:# above	!
!	!	!	!	!	!	!	!	!	!	!	!	!	!	!LO:TX:t=P:problem:w źródle podpisanie tekstu przesunięte	!
4.A/	-cun-	4.c/	-cun-	4.a\	-cun-	4ee\	-cun-	4.A/	-cun-	4.e/	-cun-	4.a\	-cun-	4cc#X\	-cun-
.	.	.	.	.	.	8ee\	-dum	.	.	.	.	.	.	8cc#\	-dum
8A/	-dum	8c/	-dum	8a\	-dum	8gg\	cum	8A/	-dum	8e/	-dum	8a\	-dum	8cc#\	cum
!	!	!	!	!	!	!	!	!	!	!	!	!	!	!LO:TX:t=P:problem:kreska pseudotaktowa	!
2d\	cum	4A/	cum	2f/	Cy-	4.aa\	Cy-	2d\	cum	2f\	Cum	2a\	Cum	2dd\	Cy-
.	.	2A/	Cy-	.	.	.	.	.	.	.	.	.	.	.	.
.	.	.	.	.	.	8dd\	-tha-	.	.	.	.	.	.	.	.
=29-	=29-	=29-	=29-	=29-	=29-	=29-	=29-	=29-	=29-	=29-	=29-	=29-	=29-	=29	=29
!	!	!	!	!	!	!	!	!	!	!	!	!LO:TX:t=P:problem:po nucie kropka, najprawdopodobniej nie została wytarta po poprawce [kropka nieuwzględniona w kodzie]	!	!	!
!	!	!	!	!	!	!	!	!	!	!	!	!	!	!LO:TX:t=P:problem:# above	!
1.A	Cy-	.	.	2.a\	-tha-	2ee\	-ra	1.A	Cy-	1.e	Cÿt-	1a	Cÿt-	4cc#X\	.
!	!	!	!	!	!	!	!	!	!	!	!	!	!	!LO:TX:a:t=P:w źródle krzyżyk w roli kasownika:problem	!
!	!	!	!	!	!	!	!	!	!	!	!	!	!	!LO:TX:t=P:problem:# above	!
!	!	!	!	!	!	!	!	!	!	!	!	!	!	!LO:N:acc=#	!
.	.	4B-/	.	.	.	.	.	.	.	.	.	.	.	4bn\	.
!	!	!	!	!	!	!	!	!	!	!	!	!	!	!LO:TX:t=P:problem:kreska pseudotaktowa	!
!	!	!LO:TX:t=P:problem:# below	!	!	!	!	!	!	!	!	!	!	!	!	!
.	.	4c#/	.	.	.	2ee\	cum	.	.	.	.	.	.	2cc#\	.
!	!	!LO:TX:t=P:problem:w źródle krzyżyk najprawdopodobniej odnosi się do nuty wcześniejszej [uwzględione w kodzie]	!	!	!	!	!	!	!	!	!	!	!	!	!
.	.	4dny/	.	8g/L	.	.	.	.	.	.	.	.	.	.	.
.	.	.	.	8f/J	.	.	.	.	.	.	.	.	.	.	.
=30-	=30-	=30-	=30-	=30-	=30-	=30-	=30-	=30-	=30-	=30-	=30-	=30-	=30-	=30	=30
.	.	2.e\	.	2e/	.	2.aa\	Cÿ-	.	.	.	.	2a\	-ha-	2cc#X\	-tha-
!	!	!	!	!	!	!	!	!	!	!	!	!LO:TX:t=P:problem:kreska pseudotaktowa	!	!LO:TX:t=P:problem:kreska pseudotaktowa	!
2A/	-tha-	.	.	2a\	.	.	.	2A/	-tha-	2e\	-ha-	2a\	-ra	2cc#\	-ra
!	!	!LO:SIC:v:t=custos d	!	!	!	!	!	!	!	!	!	!	!	!	!
.	.	4e\	-tha-	.	.	4aa\	-tha-	.	.	.	.	.	.	.	.
!	!	!LO:PB:g=original	!	!	!	!	!	!	!	!	!	!	!	!	!
=31-	=31-	=31-	=31-	=31-	=31-	=31-	=31-	=31-	=31-	=31-	=31-	=31	=31	=31	=31
!	!	!	!	!	!	!	!	!LO:TX:a:t=P:problem:pominięty fragment.	!	!LO:TX:a:t=P:problem:pominięty fragment.	!	!	!	!	!
!	!	!	!	!	!	!	!	!	!	!	!	!LO:TX:a:t=P:problem:pominięty fragment.	!	!LO:TX:a:t=P:problem:pominięty fragment.	!
!	!	!	!	!	!	!LO:SIC:v:t=custos ff	!	!	!	!	!	!	!	!	!
1d	-ra	2dny/	-ra	1a	-ra	1ff	-ra	1ryy	.	1ryy	.	1ryy	.	1ryy	.
.	.	2r	.	.	.	.	.	.	.	.	.	.	.	.	.
*	*Xij	*	*	*	*Xij	*	*	*	*	*	*	*	*	*	*
!LO:PB:g=original	!	!	!	!	!	!LO:LB:g=original	!	!	!	!	!	!	!	!	!
=32-	=32-	=32-	=32-	=32-	=32-	=32-	=32-	=32-	=32-	=32-	=32-	=32-	=32-	=32-	=32-
4r	.	4B-/	buc-	4r	.	4r	.	4d\	-ra	4f\	-ra,	4r	.	4r	.
8d\	bu-	4B-/	-ci-	2b-\	buc-	8ff\	buc-	8d\	buc-	8f\	buc-	8a\	buc-	8ff\	buc-
!	!	!	!	!	!	!	!	!	!	!	!	!	!	!LO:TX:t=P:problem:w źródle nuta niewidoczna	!
8c\	-ci-	.	.	.	.	8ee\	-ci-	8c\	-ci-	8e/	.	8a\	-ci-	8ee\yy	-ci-
8B-/L	-na-	2f\	-na-	.	.	8dd\L	-na-	8B-\L	-na-	8d/L	-ci-	2b-\	-na-	8dd\L	-na-
8A/	.	.	.	.	.	8cc\	.	8A\	.	8c/J	.	.	.	8cc\	.
8B-/	.	.	.	4b-\	-ci-	8dd\	.	8B-\	.	8d/L	-na	.	.	8dd\	.
!	!	!	!	!	!	!	!	!	!	!	!	!	!	!LO:TX:t=P:problem:kreska pseudotaktowa	!
8c/J	.	.	.	.	.	8ee\J	.	8c\J	.	8e/J	.	.	.	8ee\J	.
=33-	=33-	=33-	=33-	=33-	=33-	=33-	=33-	=33-	=33-	=33-	=33-	=33-	=33-	=33	=33
!	!	!	!	!	!	!	!	!	!	!	!	!LO:SIC:v:t=custos b-	!	!	!
4d\	.	2B-/	-te	4b-\	-na-	4ff\	.	2d\	.	2f\	.	2b-\	-te	2ff\	.
!	!	!	!	!LO:SIC:v:t=custos b-	!	!	!	!	!	!	!	!	!	!	!
4B-/	-te	.	.	4b-\	-te	4dd\	-te,	.	.	.	.	.	.	.	.
!	!	!	!	!LO:LB:g=original	!	!	!	!	!	!	!	!LO:LB:g=original	!	!	!
!	!	!	!	!	!	!	!	!	!	!LO:TX:t=P:problem:kreska pseudotaktowa	!	!	!	!	!
4r	.	4r	.	4r	.	4r	.	4B-\	-te	2B-X/	te	4b-\	buc-	4dd\	-te,
*	*ij	*	*	*	*	*	*	*	*	*	*	*	*	*	*
8d\	bu-	2B-/	buc-	2b-\	buc-	8ff\	buc-	8d\	buc-	.	.	4b-\	-ci-	8ff\	buc-
!	!	!	!	!	!	!	!	!	!	!	!	!	!	!LO:TX:t=P:problem:kreska pseudotaktowa	!
8c\	-ci-	.	.	.	.	8ee\	-ci-	8c\	-ci-	.	.	.	.	8ee\	-ci-
=34-	=34-	=34-	=34-	=34-	=34-	=34-	=34-	=34-	=34-	=34	=34	=34-	=34-	=34	=34
8B-/L	-na-	.	.	.	.	8dd\L	-na-	8B-X\L	-na-	4r	.	1b-	-na-	8dd\L	-na-
8A/	.	.	.	.	.	8cc\	.	8A\	.	.	.	.	.	8cc\	.
8B-/	.	4f\	-ci-	4b-\	-ci-	8dd\	.	8B-X\	.	8f\	buc-	.	.	8dd\	.
8c/J	.	.	.	.	.	8ee\J	.	8c\J	.	8f\	-ci-	.	.	8ee\J	.
!	!	!	!	!	!	!	!	!	!	!	!	!	!	!LO:TX:t=P:problem:kreska pseudotaktowa	!
!	!	!	!	!	!	!	!	!	!	!	!	!	!	!LO:SIC:v:t=custos dd	!
2d\	.	2B-/	-na-	2b-\	-na-	2ff\	.	2d\	.	2B-X/	-na-	.	.	2ff\	.
!	!	!	!	!	!	!	!	!	!	!	!	!	!	!LO:LB:g=original	!
=35-	=35-	=35-	=35-	=35-	=35-	=35-	=35-	=35-	=35-	=35-	=35-	=35-	=35-	=35	=35
2B-/	-te	2f\	-te,	2b-\	-te,	2dd\	-te	2B-\	-te	2f\	-te,	2b-\	-te,	2dd\	-te
*	*Xij	*	*	*	*	*	*	*	*	*	*	*	*	*	*
*	*	*	*	*	*	*	*	*	*	*	*	*	*ij	*	*
4B-/	buc-	4.f\	buc-	4b-\	buc-	4.dd\	buc-	4B-\	buc-	4r	.	4b-\	buc-	4r	.
4B-/	-ci-	.	.	4b-\	-ci-	.	.	4B-\	-ci-	8f\	buc-	4b-\	-ci-	8dd\	buc-
!	!	!	!	!	!	!	!	!	!	!	!	!	!	!LO:TX:t=P:problem:kreska pseudotaktowa	!
.	.	8e/	-ci-	.	.	8cc\	-ci-	.	.	8e\	-ci-	.	.	8cc\	-ci-
=36-	=36-	=36-	=36-	=36-	=36-	=36-	=36-	=36-	=36-	=36-	=36-	=36-	=36-	=36	=36
!	!	!	!	!	!	!	!	!LO:SIC:v:t=custos BB-	!	!	!	!	!	!	!
2B-/	-na-	8d/L	-na-	2f/	-na-	8b-\L	-na-	2B-\	-na-	8d/L	-na-	2.f/	-na-	8b-/L	-na-
.	.	8cny/	.	.	.	8a\	.	.	.	8c/	.	.	.	8a/	.
.	.	8d/	.	.	.	8b-\	.	.	.	8d/	.	.	.	8b-/	.
!	!	!	!	!	!	!	!	!	!	!LO:SIC:v:t=custos f	!	!	!	!	!
.	.	8e/J	.	.	.	8cc\J	.	.	.	8e/J	.	.	.	8cc/J	.
!	!	!	!	!	!	!	!	!LO:LB:g=original	!	!LO:LB:g=original	!	!	!	!	!
2B-/	-te	4f\	.	2f/	-te	4dd\	.	2BB-X/	-te	4f\	.	.	.	4dd\	.
!	!	!	!	!	!	!	!	!	!	!	!	!LO:TX:t=P:problem:kreska pseudotaktowa	!	!LO:TX:t=P:problem:kreska pseudotaktowa	!
.	.	4d/	-te	.	.	4b-/	-te	.	.	4d/	-te	4f/	-te	4b-/	-te,
*	*	*	*	*	*	*	*	*	*	*	*	*	*Xij	*	*
=37-	=37-	=37-	=37-	=37-	=37-	=37-	=37-	=37-	=37-	=37-	=37-	=37	=37	=37	=37
4r	.	4r	.	4r	.	4r	.	4r	.	4r	.	4r	.	4r	.
4F/	in	4f\	in	4a\	in	4cc\	in	4B-\	in	4f\	in	4b-\	in	4dd\	in
4F/	ne-	4f\	ne-	4a\	ne-	4cc\	ne-	4F/	ne-	4f\	Ne-	4a\	ne-	4cc\	ne-
!	!	!	!	!	!	!	!	!	!	!	!	!	!	!LO:TX:t=P:problem:kreska pseudotaktowa	!
4F/	-o-	4f\	-o-	4a\	-o-	4cc\	-o-	4F/	-o-	4f\	-o-	4a\	-o-	4cc\	-o-
=38-	=38-	=38-	=38-	=38-	=38-	=38-	=38-	=38-	=38-	=38-	=38-	=38-	=38-	=38	=38
4F/	-me-	4f\	-me-	4a\	-me-	4cc\	-me-	4F/	-me-	4f\	-me-	4a\	-me-	4cc\	-me-
8F/	-ni-	8f\	-ni-	8a\	-ni-	8cc\	-ni-	8F/	-ni-	8f\	-ni-	8a\	-ni-	8cc\	-ni-
!	!	!	!	!	!	!LO:SIC:v:t=custos cc	!	!	!	!	!	!	!	!	!
8F/	-a	8f\	-a	8a\	-a	8cc\	-a	8F/	-a	8f\	-a	8a\	-a	8cc\	-a
!	!	!	!	!	!	!LO:LB:g=original	!	!	!	!	!	!	!	!	!
4F/	tu-	4f\	tu-	4a\	tu-	4cc\	tu-	4F/	tu-	4f\	tu-	4a\	tu-	4cc\	tu-
!	!	!	!	!	!	!	!	!	!	!LO:TX:t=P:problem:kreska pseudotaktowa	!	!LO:TX:t=P:problem:kreska pseudotaktowa	!	!LO:TX:t=P:problem:kreska pseudotaktowa	!
4F/	-ba,	4f\	-ba	4a\	-ba	4cc\	-ba	4F/	-ba	4f\	-ba,	4a\	-ba	4cc\	-ba
=39-	=39-	=39-	=39-	=39-	=39-	=39-	=39-	=39-	=39-	=39	=39	=39	=39	=39	=39
4r	.	4r	.	4r	.	4r	.	4r	.	4r	.	4r	.	4r	.
*	*	*	*	*	*	*	*	*	*	*	*ij	*	*ij	*	*
!LO:SIC:v:t=custos f	!	!LO:SIC:v:t=custos f	!	!	!	!	!	!	!	!	!	!	!	!	!
4f\	in	4f\	in	4cc\	in	4aa\	in	4F/	in	4f\	in	4cc\	in	4aa\	in
!LO:LB:g=original	!	!LO:LB:g=original	!	!	!	!	!	!	!	!	!	!	!	!	!
4f\	ne-	4f\	ne-	4cc\	ne-	4aa\	ne-	4F/	ne-	4f\	Ne-	4cc\	ne-	4aa\	ne-
!	!	!	!	!	!	!	!	!	!	!	!	!	!	!LO:TX:t=P:problem:kreska pseudotaktowa	!
4f\	-o-	4f\	-o-	4cc\	-o-	4aa\	-o-	4F/	-o-	4f\	-o-	4cc\	-o-	4aa\	-o-
=40-	=40-	=40-	=40-	=40-	=40-	=40-	=40-	=40-	=40-	=40-	=40-	=40-	=40-	=40	=40
4f\	-me-	4f\	-me-	4cc\	-me-	4aa\	-me-	4F/	-me-	4f\	-me-	4cc\	-me-	4aa\	-me-
8f\	-ni-	8A/	-ni-	8cc\	-ni-	8aa\	-ni-	8F/	-ni-	8f\	-ni-	8a\	-ni-	8aa\	-ni-
8g\	-a	8B-/	-a	8b-\	-a	8gg\	-a	8G/	-a	8f\	-a	8a\	-a	8gg,<\	-a
!	!	!	!	!	!	!	!	!	!	!	!	!	!	!LO:TX:t=P:problem:kreska pseudotaktowa	!
2a\	tu-	2c/	tu-	8a\L	tu-	8ff\L	tu-	2A/	tu-	2c/	tu-	2cc\	tu-	2ff\	tu-
.	.	.	.	8g\	.	8ee\	.	.	.	.	.	.	.	.	.
.	.	.	.	8a\	.	8ff\	.	.	.	.	.	.	.	.	.
.	.	.	.	8b-\J	.	8gg\J	.	.	.	.	.	.	.	.	.
=41-	=41-	=41-	=41-	=41-	=41-	=41-	=41-	=41-	=41-	=41-	=41-	=41-	=41-	=41	=41
!	!	!	!	!	!	!	!	!	!	!	!	!LO:SIC:v:t=custos cc	!	!	!
2f\	-ba	2c/	-ba	4cc\	.	4aa\	.	2F/	-ba	2c/	-ba,	2a\	-ba	2ff\	-ba
.	.	.	.	4a\	-ba	4ff\	-ba	.	.	.	.	.	.	.	.
!	!	!	!	!	!	!	!	!	!	!LO:TX:t=P:problem:kreska pseudotaktowa	!	!LO:TX:t=P:problem:kreska pseudotaktowa	!	!	!
!	!	!	!	!	!	!	!	!LO:TX:t=P:problem:kreska pseudotaktowa	!	!	!	!	!	!LO:TX:t=P:problem:kreska pseudotaktowa	!
!	!	!	!	!LO:SIC:v:t=custos cc	!	!	!	!	!	!	!	!LO:SIC:v:t=custos cc	!	!	!
2r	.	2r	.	2r	.	2r	.	2r	.	2r	.	2r	.	2r	.
*	*	*	*	*	*	*	*	*	*	*	*Xij	*	*Xij	*	*
!	!	!	!	!LO:LB:g=original	!	!	!	!	!	!	!	!LO:LB:g=original	!	!	!
=42-	=42-	=42-	=42-	=42-	=42-	=42-	=42-	=42	=42	=42	=42	=42	=42	=42	=42
*	*	*	*	*	*	*	*	*	*	*	*ij	*	*	*	*
!	!	!	!	!	!	!	!	!	!	!	!	!	!	!LO:SIC:v:t=custos ee	!
2c/	in	2g\	in	2cc\	in	2ee\	in	2c\	in	2g\	in	2cc\	in	2ee\	in
!	!	!	!	!	!	!	!	!	!	!	!	!	!	!LO:LB:g=original	!
4c/	ne-	4g\	ne-	4cc\	ne-	4ee\	ne-	4c\	ne-	4g\	Ne-	4cc\	ne-	4ee\	Ne-
!	!	!	!	!	!	!	!	!	!	!	!	!	!	!LO:TX:t=P:problem:kreska pseudotaktowa	!
4c/	-o-	4g\	-o-	4cc\	-o-	4ee\	-o-	4c\	-o-	4g\	-o-	4cc\	-o-	4ee\	-o-
=43-	=43-	=43-	=43-	=43-	=43-	=43-	=43-	=43-	=43-	=43-	=43-	=43-	=43-	=43	=43
4c/	-me-	4g\	-me-	4cc\	-me-	4ee\	-me-	4c\	-me-	4g\	-me-	4cc\	-me-	4ee\	-me-
8c/	-ni-	8g\	-ni-	8cc\	-ni-	8ee\	-ni-	8c\	-ni-	8g\	-ni-	8cc\	-ni-	8ee\	-ni-
8c/	-a	8g\	-a	8cc\	-a	8ee\	-a	8c\	-a	8g\	-a	8cc\	-a	8ee\	-a
!	!	!	!	!	!	!	!	!	!	!	!	!LO:TX:a:t=P:w źródle nuta wytarta:problem	!	!	!
!	!	!	!	!	!	!	!	!	!	!	!	!	!	!LO:TX:t=P:problem:kreska pseudotaktowa	!
2c/	tu-	2g\	tu-	2cc\	tu-	2ee\	tu-	2c\	tu-	2g\	tu-	2cc\	tu-	2ee\	tu-
=44-	=44-	=44-	=44-	=44-	=44-	=44-	=44-	=44-	=44-	=44-	=44-	=44-	=44-	=44	=44
!	!	!	!	!	!	!	!	!LO:TX:t=P:problem:kreska oddechu na różnych liniach [rozdzielacz słów / znak oddechu]:global	!	!	!	!	!	!	!
!	!	!	!	!	!	!	!	!	!	!	!	!LO:TX:t=P:problem:kreska oddechu na różnych liniach [rozdzielacz słów / znak oddechu]:global	!	!	!
4c/	-ba,	4g,<\	-ba,	4cc,<\	-ba,	4ee,<\	-ba,	4C,</	-ba,	4g,<\	-ba,	4cc,<\	-ba,	4ee\	-ba
*	*	*	*	*	*	*	*	*	*	*	*Xij	*	*	*	*
*	*	*	*	*	*	*	*	*	*	*	*	*	*ij	*	*
4c/	in	4g\	in	4cc\	in	4ee\	in	4c\	in	4g\	in	4cc\	in	4ee\	in
!	!	!	!	!	!	!	!	!LO:SIC:v:t=custos c	!	!	!	!	!	!	!
4c/	ne-	4g\	ne-	4cc\	ne-	4ee\	ne-	4c\	ne-	4g\	ne-	4cc\	ne-	4ee\	Ne-
!	!	!	!	!	!	!	!	!LO:LB:g=original	!	!	!	!	!	!	!
!	!	!	!	!	!	!	!	!	!	!	!	!	!	!LO:TX:t=P:problem:kreska pseudotaktowa	!
4c/	-o-	4g\	-o-	4cc\	-o-	4ee\	-o-	4c\	-o-	4g\	-o-	4cc\	-o-	4ee\	-o-
=45-	=45-	=45-	=45-	=45-	=45-	=45-	=45-	=45-	=45-	=45-	=45-	=45-	=45-	=45	=45
!	!	!	!	!	!	!	!	!	!	!LO:SIC:v:t=custos g	!	!	!	!	!
4c/	-me-	4g\	-me-	4cc\	-me-	4ee\	-me-	4c\	-me-	4g\	-me-	4cc\	-me-	4ee\	-me-
!	!	!	!	!	!	!	!	!	!	!LO:LB:g=original	!	!	!	!	!
8c/	-ni-	8e/	-ni-	8cc\	-ni-	8ee\	-ni-	8c\	-ni-	8e/	-ni-	8cc\	-ni-	8ee\	-ni-
8d\	-a	8d/	-a	8cc\	-a	8ff,<\	-a,	8d\	-a	8d/	-a	8cc\	-a	8ff\	-a
2e\	tu-	2c/	tu-	2cc\	tu-	2gg\	tu-	2e\	tu-	2c/	tu-	2cc\	tu-	2gg\	tu-
=46-	=46-	=46-	=46-	=46-	=46-	=46-	=46-	=46-	=46-	=46-	=46-	=46-	=46-	=46-	=46-
!	!	!	!	!	!	!	!	!	!	!LO:TX:t=P:problem:kreska pseudotaktowa	!	!LO:TX:t=P:problem:kreska pseudotaktowa	!	!LO:TX:t=P:problem:kreska pseudotaktowa	!
!	!	!	!	!	!	!LO:SIC:v:t=custos dd	!	!	!	!	!	!	!	!	!
1c;;	-ba	1g;;	-ba	1cc;;	-ba	1ee;;	-ba	1c;;	-ba	1g;;	-ba	1cc;;	-ba	1ee;<	-ba.
*	*	*	*	*	*	*	*	*	*	*	*	*	*Xij	*	*
!	!	!	!	!	!	!LO:LB:g=original	!	!	!	!	!	!	!	!	!
=47-	=47-	=47-	=47-	=47-	=47-	=47-	=47-	=47-	=47-	=47	=47	=47	=47	=47	=47
*M3/1	*	*M3/1	*	*M3/1	*	*M3/1	*	*M3/1	*	*M3/1	*	*M3/1	*	*M3/1	*
*	*	*	*	*	*	*	*	*	*color:red	*	*color:red	*	*color:red	*	*color:red
!	!	!	!	!	!	!	!	!LO:TX:a:t=P:w źródle tylko litera 'I' ma kolor czerwony:problem	!	!LO:TX:a:t=P:w źródle tylko litera 'I' ma kolor czerwony:problem	!	!	!	!	!
!	!	!	!	!	!	!	!	!	!	!	!	!LO:TX:a:t=P:w źródle tylko litera 'I' ma kolor czerwony:problem	!	!LO:TX:a:t=P:w źródle tylko litera 'I' ma kolor czerwony:problem	!
00.r	.	00.r	.	00.r	.	00.r	.	0c	In	0g	In	0cc	In	0ee	In
*	*	*	*	*	*	*	*	*	*color:auto	*	*color:auto	*	*color:auto	*	*color:auto
!	!	!	!	!	!	!	!	!LO:TX:a:t=P:problem:♭ above	!	!	!	!	!	!	!
.	.	.	.	.	.	.	.	1B-X	in-	1g	in-	1a	in-	1dd	in-
=48-	=48-	=48-	=48-	=48-	=48-	=48-	=48-	=48-	=48-	=48-	=48-	=48-	=48-	=48-	=48-
.	.	.	.	.	.	.	.	1.c	-si-	1.e	-si-	1.g	-si-	1.cc	-ſi-
.	.	.	.	.	.	.	.	2c\	-gni	2e/	-gni	2g/	-gni	2cc\	-gni
!	!	!	!	!	!	!	!	!	!	!	!	!	!	!LO:TX:a:t=P:w źródle krzyżyk w roli kasownika:problem	!
!	!	!	!	!	!	!	!	!	!	!	!	!LO:TX:t=P:problem:# below	!	!LO:TX:t=P:problem:# below	!
!	!	!	!	!	!	!	!	!	!	!	!	!	!	!LO:N:acc=#	!
.	.	.	.	.	.	.	.	2G/	di-	2d/	di-	2f#X/	di-	2bn/	i-
!	!	!	!	!	!	!	!	!	!	!	!	!	!	!LO:TX:a:t=P:w źródle krzyżyk w roli kasownika:problem	!
!	!	!	!	!	!	!	!	!	!	!	!	!	!	!LO:TX:t=P:problem:# below	!
!	!	!	!	!	!	!	!	!	!	!	!	!	!	!LO:N:acc=#	!
.	.	.	.	.	.	.	.	2G/	-e	2d/	-e	2g/	-e	2b/	-e
=49-	=49-	=49-	=49-	=49-	=49-	=49-	=49-	=49-	=49-	=49-	=49-	=49-	=49-	=49-	=49-
00.r	.	00.r	.	00.r	.	00.r	.	1c	ſo-	1e	ſo-	1g	ſo-	1cc	ſo-
.	.	.	.	.	.	.	.	2B-\	-len-	2f\	-len-	2b-X\	-len-	2dd\	-le-
!	!	!	!	!	!	!	!	!	!	!	!	!LO:SIC:v:t=custos cc	!	!	!
.	.	.	.	.	.	.	.	2B-\	-ni-	2f\	-ni-	2b-\	-ni-	2dd\	-mni-
!	!	!	!	!	!	!	!	!	!	!	!	!LO:PB:g=original	!	!	!
.	.	.	.	.	.	.	.	2A\	-ta-	2c/	-ta-	2cc\	-ta-	2ee\	-ta-
!	!	!	!	!	!	!	!	!	!	!	!	!	!	!LO:SIC:v:t=custos gg	!
.	.	.	.	.	.	.	.	2A\	-tis	2c/	-tis	2cc\	-tis	2ee\	-tis
!	!	!	!	!	!	!	!	!	!	!	!	!	!	!LO:PB:g=original	!
=50-	=50-	=50-	=50-	=50-	=50-	=50-	=50-	=50-	=50-	=50-	=50-	=50-	=50-	=50-	=50-
.	.	.	.	.	.	.	.	(>1E	Ve-	0c	Ve-	(>1g	Ve-	(>1gg	Ve-
.	.	.	.	.	.	.	.	(>1F)	.	.	.	(>1a)	.	(>1ff)	.
.	.	.	.	.	.	.	.	(>1G)	.	1B-	.	1g)	.	1dd)	.
=51-	=51-	=51-	=51-	=51-	=51-	=51-	=51-	=51-	=51-	=51-	=51-	=51-	=51-	=51-	=51-
*	*	*	*	*	*	*	*color:red	*	*	*	*	*	*	*	*
!	!	!	!	!	!	!LO:TX:a:t=P:w źródle tylko litera 'I' ma kolor czerwony:problem	!	!	!	!	!	!	!	!	!
0c	In	0g	In	0cc	In	0dd	In	0.C)	-str(ae)	0.c	-str(ae),	0.g	-str(ae)	0ee	-str(ae)
*	*	*	*	*	*	*	*color:auto	*	*	*	*	*	*	*	*
!	!	!	!	!LO:TX:t=P:problem:w źródle nad nutą błędna semibrevis, przekreślona	!	!	!	!	!	!	!	!	!	!	!
1B-	in-	1g	in-	1g	in-	1dd	in-	.	.	.	.	.	.	1r	.
=52-	=52-	=52-	=52-	=52-	=52-	=52-	=52-	=52-	=52-	=52-	=52-	=52-	=52-	=52-	=52-
1.c	-si-	1.e	-si-	1.g	-si-	1.cc	-si-	00.r	.	00.r	.	00.r	.	00.r	.
!LO:SIC:v:t=custos G	!	!LO:SIC:v:t=custos d	!	!	!	!	!	!	!	!	!	!	!	!	!
2c/	-gni	2e/	-gni	2g/	-gni	2cc\	-gni	.	.	.	.	.	.	.	.
!LO:LB:g=original	!	!LO:LB:g=original	!	!	!	!	!	!	!	!	!	!	!	!	!
!	!	!	!	!	!	!LO:TX:a:t=P:w źródle krzyżyk w roli kasownika:problem	!	!	!	!	!	!	!	!	!
!	!	!	!	!	!	!LO:TX:t=P:problem:# below	!	!	!	!	!	!	!	!	!
!	!	!	!	!	!	!LO:N:acc=#	!	!	!	!	!	!	!	!	!
2G/	di-	2d/	di-	2g/	di-	2bn/	di-	.	.	.	.	.	.	.	.
2G/	-e	2d/	-e	2g,</	-e	2b/	-e	.	.	.	.	.	.	.	.
=53-	=53-	=53-	=53-	=53-	=53-	=53-	=53-	=53-	=53-	=53-	=53-	=53-	=53-	=53-	=53-
!	!	!	!	!LO:SIC:v:t=custos b-	!	!	!	!	!	!	!	!	!	!	!
1c	ſo-	1e	ſo-	1g	ſo-	1cc	ſo-	.	.	.	.	.	.	.	.
!	!	!	!	!LO:LB:g=original	!	!	!	!	!	!	!	!	!	!	!
2B-/	-len-	2f\	-len-	2b-\	-len-	2dd\	-len-	.	.	.	.	.	.	.	.
2B-/	-ni-	2f\	-ni-	2b-\	-ni-	2dd\	-ni-	.	.	.	.	.	.	.	.
2A/	-ta-	2a\	-ta-	2cc\	-ta-	2ee\	-ta-	.	.	.	.	.	.	.	.
2A/	-tis	2a\	-tis	2cc\	-tis	2ee\	-tis	.	.	.	.	.	.	.	.
=54-	=54-	=54-	=54-	=54-	=54-	=54-	=54-	=54-	=54-	=54-	=54-	=54-	=54-	=54-	=54-
!	!	!	!	!	!	!	!	!LO:SIC:v:t=custos G	!	!	!	!	!	!	!
1G	Ve-	(>1d	Ve-	1b-	Ve-	0gg	Ves-	0.r	.	0.r	.	0.r	.	0.r	.
1c	.	(>1e)	.	0a	.	.	.	.	.	.	.	.	.	.	.
!	!	!	!	!	!	!LO:TX:t=P:problem:# below	!	!	!	!	!	!	!	!	!
1d	.	1d)	.	.	.	1ff#X	.	.	.	.	.	.	.	.	.
!	!	!	!	!	!	!	!	!LO:LB:g=original	!	!	!	!	!	!	!
=55-	=55-	=55-	=55-	=55-	=55-	=55-	=55-	=55-	=55-	=55-	=55-	=55-	=55-	=55-	=55-
!	!	!	!	!	!	!	!	!LO:TX:t=P:problem:przed nutą powtórzone metrum	!	!	!	!	!	!	!
0.G	-str(ae)	0.d	-str(ae)	0.b-	-str(ae)	0.gg	-tr(ae)	0G	In	0g	In	0b-X	In	0dd	In
!	!	!	!	!	!	!	!	!LO:TX:t=P:problem:# above	!	!	!	!	!	!	!
!	!	!	!	!	!	!	!	!	!	!LO:SIC:v:t=custos d	!	!	!	!	!
.	.	.	.	.	.	.	.	1F#X	in-	1d	in-	1a	in-	1dd	in-
!	!	!	!	!	!	!	!	!	!	!LO:LB:g=original	!	!	!	!	!
=56-	=56-	=56-	=56-	=56-	=56-	=56-	=56-	=56-	=56-	=56-	=56-	=56-	=56-	=56-	=56-
00.r	.	00.r	.	00.r	.	00.r	.	1.G	-si-	1.d	-ſi-	1.g	-si-	1.b-X	-si-
.	.	.	.	.	.	.	.	2G/	-gni	2d/	-gni	2g/	-gni	2b-/	-gni
.	.	.	.	.	.	.	.	2D/	di-	2d/	di-	2fny/	di-	2a/	di-
!	!	!	!	!	!	!	!	!	!	!	!	!LO:TX:t=P:problem:# below	!	!	!
.	.	.	.	.	.	.	.	2D/	-e	2d/	-e	2f#X/	-e	2a/	-e
=57-	=57-	=57-	=57-	=57-	=57-	=57-	=57-	=57-	=57-	=57-	=57-	=57-	=57-	=57-	=57-
!	!	!	!	!	!	!	!	!	!	!LO:TX:t=P:problem:# above	!	!	!	!	!
.	.	.	.	.	.	.	.	1G	ſo-	1d#X	ſo-	1g	ſo-	1b-	ſo-
.	.	.	.	.	.	.	.	2Fny/	-len-	2f\	-len-	2a\	-len-	2cc\	-len-
.	.	.	.	.	.	.	.	2F/	-ni-	2f\	-ni-	2a\	-ni-	2cc\	-ni-
.	.	.	.	.	.	.	.	2E/	-ta-	2g\	-ta-	2g/	-ta-	2cc\	-ta-
.	.	.	.	.	.	.	.	2E/	-tis	2g\	-tis	2g/	-tis	2cc\	-tis
=58-	=58-	=58-	=58-	=58-	=58-	=58-	=58-	=58-	=58-	=58-	=58-	=58-	=58-	=58-	=58-
0.r	.	0.r	.	0.r	.	0.r	.	1D	Ve-	(>1a	Ve-	(>1fny	Ve-	0dd	Ve-
.	.	.	.	.	.	.	.	1G	.	1g)	.	(>1b-)	.	.	.
!	!	!	!	!	!	!	!	!	!	!	!	!	!	!LO:TX:t=P:problem:# below	!
.	.	.	.	.	.	.	.	1A	.	1e	.	1a)	.	1cc#X	.
=59-	=59-	=59-	=59-	=59-	=59-	=59-	=59-	=59-	=59-	=59-	=59-	=59-	=59-	=59-	=59-
!	!	!	!	!	!	!	!	!	!	!	!	!LO:SIC:v:t=custos a	!	!LO:SIC:v:t=custos dd	!
0d	In	0f	In	0a	In	0dd	In	0.D	-str(ae)	0f	-str(ae)	0.a	-str(ae)	0.dd	-str(ae).
1c	in-	1e	in-	1a	in-	1ee	in-	.	.	1r	.	.	.	.	.
!	!	!	!	!	!	!	!	!	!	!	!	!LO:LB:g=original	!	!LO:LB:g=original	!
=60-	=60-	=60-	=60-	=60-	=60-	=60-	=60-	=60-	=60-	=60-	=60-	=60-	=60-	=60-	=60-
*	*	*	*	*	*	*	*	*	*	*	*	*	*	*M3/1	*
!	!	!	!	!	!	!	!	!	!	!	!	!	!	!LO:TX:t=P:problem:przed nutą powtórzone metrum	!
1.d	-si-	1.f	-si-	1.a	-si-	1.dd	-si-	0d	In	0f	In	0a	In	0dd	In
2d\	-gni	2a\	-gni	2a\	-gni	2ffny\	-gni	.	.	.	.	.	.	.	.
!	!	!	!	!	!	!	!	!LO:TX:t=P:problem:# below	!	!	!	!	!	!	!
2A/	di-	2a\	di-	2cc\	di-	2aa\	di-	1c#X	in-	1e	in-	1a	in-	1ee	in-
!	!	!	!	!	!	!LO:SIC:v:t=custos ff	!	!	!	!	!	!	!	!	!
2A/	-e	2e/	-e	2cc\	-e,	2aa\	-e	.	.	.	.	.	.	.	.
!	!	!	!	!	!	!LO:LB:g=original	!	!	!	!	!	!	!	!	!
=61-	=61-	=61-	=61-	=61-	=61-	=61-	=61-	=61-	=61-	=61-	=61-	=61-	=61-	=61-	=61-
0d	In	1r	.	0a	In	0ff	In	1.d	-si-	1.f	-ſi-	1.a	-si-	1.dd	-si-
.	.	1d	In	.	.	.	.	.	.	.	.	.	.	.	.
.	.	.	.	.	.	.	.	2d\	-gni	2dny/	-gni	2a\	-gni	2ff\	-gni
!LO:TX:t=P:problem:# below	!	!	!	!	!	!	!	!	!	!	!	!	!	!	!
1c#X	in-	1a	in-	1a	in-	1ff	in-	2A\	di-	2e/	di-	2cc\	di-	2aa\	di-
.	.	.	.	.	.	.	.	2A\	-e	2e/	-e	2cc\	-e	2aa\	-e
=62-	=62-	=62-	=62-	=62-	=62-	=62-	=62-	=62-	=62-	=62-	=62-	=62-	=62-	=62-	=62-
!	!	!	!	!	!	!	!	!LO:SIC:v:t=custos c	!	!	!	!	!	!	!
1.d	-si-	1.a	-si-	1.a	-si-	1.ff	-si-	0d	In	0d	In	0a	In	0ff	In
!LO:SIC:v:t=custos A	!	!	!	!	!	!	!	!	!	!	!	!	!	!	!
2d\	-gni	2d/	-gni	2a\	-gni	2ff\	-gni	.	.	.	.	.	.	.	.
!LO:LB:g=original	!	!	!	!	!	!	!	!LO:LB:g=original	!	!	!	!	!	!	!
!	!	!	!	!	!	!	!	!LO:TX:t=P:problem:w źródle wysokość nuty była korygowana skośnymi "łapkami" w dół	!	!	!	!	!	!	!
1A	di-	2e/	.	1cc	di-	1aa	di-	1cny	in-	1a	in-	1a	in-	1ee	in-
.	.	2A/	di-	.	.	.	.	.	.	.	.	.	.	.	.
=63-	=63-	=63-	=63-	=63-	=63-	=63-	=63-	=63-	=63-	=63-	=63-	=63-	=63-	=63-	=63-
!	!	!LO:SIC:v:t=custos f	!	!	!	!	!	!	!	!	!	!	!	!	!
0.d	-e	0.d	-e	0a	-e	0.ff	-e	1.d	-ſi-	1.f	-si-	1.a	-si-	1.dd	-si-
!	!	!	!	!	!	!	!	!	!	!LO:SIC:v:t=custos e	!	!	!	!	!
.	.	.	.	.	.	.	.	2d\	-gni	2d/	-gni	2f/	-gni	2a/	-gni
!	!	!	!	!	!	!	!	!	!	!LO:LB:g=original	!	!	!	!	!
.	.	.	.	1r	.	.	.	1A	di-	1e	di-	1g	di-	1ccny	di-
!	!	!LO:LB:g=original	!	!	!	!	!	!	!	!	!	!	!	!	!
=64-	=64-	=64-	=64-	=64-	=64-	=64-	=64-	=64-	=64-	=64-	=64-	=64-	=64-	=64-	=64-
0f	In	0f	In	0cc	In	0aa	In	0.F	-e	0f	-e	0a	-e	0.cc	-(ae)
!	!	!	!	!LO:SIC:v:t=custos cc	!	!	!	!	!	!	!	!	!	!	!
1e	in-	1g	in-	1cc	in-	1gg	in-	.	.	1r	.	1r	.	.	.
!	!	!	!	!LO:LB:g=original	!	!	!	!	!	!	!	!	!	!	!
=65-	=65-	=65-	=65-	=65-	=65-	=65-	=65-	=65-	=65-	=65-	=65-	=65-	=65-	=65-	=65-
*	*	*	*	*	*	*	*	*	*	*	*	*	*ij	*	*ij
1.f	-si-	1.a	-si-	1.cc	-ſi-	1.ff	-si-	0f	In	0f	In	0cc	In	0aa	In
2f\	-gni	2a\	-gni	2cc\	-gni	2cc\	-gni	.	.	.	.	.	.	.	.
2cny/	di-	2e/	di-	2cc\	di-	2ee\	di-	1e	in-	1g	in-	1cc	in-	1gg	in-
2c/	-e	2e/	-e	2cc\	-e	2ee\	-e,	.	.	.	.	.	.	.	.
=66-	=66-	=66-	=66-	=66-	=66-	=66-	=66-	=66-	=66-	=66-	=66-	=66-	=66-	=66-	=66-
0f	In	1r	.	0cc	In	0aa	In	1.f	-si-	1.a	-ſi-	1.cc	-si-	1.ff	-si-
.	.	1f	In	.	.	.	.	.	.	.	.	.	.	.	.
.	.	.	.	.	.	.	.	2f\	-gni	2a\	-gni	2cc\	-gni	2cc\	-gni
1e	in-	1g	in-	1cc	in-	1gg	in-	2c\	di-	2e/	di-	2cc\	di-	2ee\	di-
.	.	.	.	.	.	.	.	2c\	-e	2e/	-e	2cc\	-e	2ee\	-(ae)
*	*	*	*	*	*	*	*	*	*	*	*	*	*Xij	*	*Xij
=67-	=67-	=67-	=67-	=67-	=67-	=67-	=67-	=67-	=67-	=67-	=67-	=67-	=67-	=67-	=67-
1.f	-si-	1.a	-si-	1.cc	-si-	1.ff	-si-	0f	In	1r	.	0cc	In	0aa	In
.	.	.	.	.	.	.	.	.	.	1f	In	.	.	.	.
2f\	-gni	2a\	-gni	2cc\	-gni	2cc\	-gni	.	.	.	.	.	.	.	.
!	!	!	!	!	!	!	!	!	!	!	!	!LO:SIC:v:t=custos cc	!	!	!
1c	di-	2e/	di-	1cc	di-	1ee	di-	1e	in-	1g	in-	1cc	in-	1gg	in-
.	.	2c/	.	.	.	.	.	.	.	.	.	.	.	.	.
!	!	!	!	!	!	!	!	!	!	!	!	!LO:LB:g=original	!	!LO:LB:g=original	!
=68-	=68-	=68-	=68-	=68-	=68-	=68-	=68-	=68-	=68-	=68-	=68-	=68-	=68-	=68-	=68-
0.F	-e	0.f	-e,	0a	-e	0.aa	-e	1.f	-si-	1.a	-ſi-	1.cc	-ſi-	1.ff	-ſi-
.	.	.	.	.	.	.	.	2f\	-gni	2f\	-gni	2a\	-gni	2cc\	-gni
.	.	.	.	1r	.	.	.	1c	di-	1e	di-	1g	di-	1cc	di-
=69-	=69-	=69-	=69-	=69-	=69-	=69-	=69-	=69-	=69-	=69-	=69-	=69-	=69-	=69-	=69-
1f	ſo-	1f	ſo-	1a	ſo-	1cc	ſo-	1F	-e	1f	-e	1a	-e	1cc	-e
2e\	-len-	2c/	-len-	2g/	-len-	2cc\	-len-	1r	.	1r	.	1r	.	1r	.
!	!	!	!	!	!	!LO:SIC:v:t=custos b	!	!	!	!	!	!	!	!	!
2e\	-ni-	2c/	-ni-	2g/	-ni-	2cc\	-ni-	.	.	.	.	.	.	.	.
!	!	!	!	!	!	!LO:LB:g=original	!	!	!	!	!	!	!	!	!
!	!	!	!	!	!	!LO:TX:a:t=P:w źródle krzyżyk w roli kasownika:problem	!	!	!	!	!	!	!	!	!
!	!	!	!	!	!	!LO:TX:t=P:problem:# below	!	!	!	!	!	!	!	!	!
!	!	!	!	!	!	!LO:N:acc=#	!	!	!	!	!	!	!	!	!
2d/	-ta-	2d/	-ta-	2f/	-ta-	2bn/	-ta-	1r	.	1r	.	1r	.	1r	.
2d/	-tis	2d/	-tis	2f/	-tis	2b/	-tis	.	.	.	.	.	.	.	.
=70-	=70-	=70-	=70-	=70-	=70-	=70-	=70-	=70-	=70-	=70-	=70-	=70-	=70-	=70-	=70-
1c	Ve-	(>1e	Ve-	1g	Ve-	0cc	Ves-	0.r	.	0.r	.	0.r	.	0.r	.
1f	.	1f)	.	(>1a	.	.	.	.	.	.	.	.	.	.	.
!	!	!	!	!	!	!LO:TX:a:t=P:w źródle krzyżyk w roli kasownika:problem	!	!	!	!	!	!	!	!	!
!	!	!	!	!	!	!LO:TX:t=P:problem:# below	!	!	!	!	!	!	!	!	!
!	!	!	!	!	!	!LO:N:acc=#	!	!	!	!	!	!	!	!	!
!LO:SIC:v:t=custos c	!	!	!	!	!	!	!	!	!	!	!	!	!	!	!
1g	.	(>1d	-str(ae).	1g)	.	1bn	.	.	.	.	.	.	.	.	.
!LO:LB:g=original	!	!	!	!	!	!	!	!	!	!	!	!	!	!	!
=71-	=71-	=71-	=71-	=71-	=71-	=71-	=71-	=71-	=71-	=71-	=71-	=71-	=71-	=71-	=71-
0.c	-str(ae)	1e)	.	1g	-str(ae)	1cc	-tr(ae),	1c	ſo-	1g	ſo-	1cc	ſo-	1ee	ſo-
.	.	1r	.	1r	.	1r	.	2B-\	-len-	2d/	-len-	2g/	-len-	2dd\	-len-
!	!	!	!	!	!	!	!	!LO:SIC:v:t=custos A	!	!	!	!	!	!	!
.	.	.	.	.	.	.	.	2B-\	-ni-	2d/	-ni-	2g/	-ni-	2dd\	-ni-
!	!	!	!	!	!	!	!	!LO:PB:g=original	!	!	!	!	!	!	!
.	.	1r	.	1r	.	1r	.	2A/	-ta-	2e/	-ta-	2a\	-ta-	2cc\	-ta-
.	.	.	.	.	.	.	.	2A/	-tis	2e/	-tis	2a\	-tis	2cc\	-tis
=72-	=72-	=72-	=72-	=72-	=72-	=72-	=72-	=72-	=72-	=72-	=72-	=72-	=72-	=72-	=72-
!	!	!LO:SIC:v:t=custos g	!	!	!	!	!	!	!	!	!	!	!	!	!
0.r	.	0.r	.	0.r	.	0.r	.	(>1G	Ve-	0g	Ve-	(>1b-	Ve-	(>1dd	Ve-
.	.	.	.	.	.	.	.	(>1c)	.	.	.	(>1cc)	.	(>1ee)	.
!	!	!	!	!	!	!	!	!	!	!LO:TX:t=P:problem:# below	!	!	!	!	!
.	.	.	.	.	.	.	.	1d)	.	1f#X	.	1a)	.	1dd)	.
!	!	!LO:LB:g=original	!	!	!	!	!	!	!	!	!	!	!	!	!
=73-	=73-	=73-	=73-	=73-	=73-	=73-	=73-	=73-	=73-	=73-	=73-	=73-	=73-	=73-	=73-
1g	ſo-	1g	ſo-	1b-	ſo-	1dd	ſo-	1G	-str(ae)	1g	-str(ae)	1b-	-str(ae)	0dd	-str(ae)
2f\	-len-	2d/	-len-	2a\	-len-	2dd\	-len-	1r	.	1r	.	1r	.	.	.
!	!	!	!	!LO:SIC:v:t=custos g	!	!	!	!	!	!	!	!	!	!	!
2f\	-ni-	2d/	-ni-	2a\	-ni-	2dd\	-ni-	.	.	.	.	.	.	.	.
!	!	!	!	!LO:LB:g=original	!	!	!	!	!	!	!	!	!	!	!
!	!	!	!	!	!	!LO:TX:t=P:problem:# above	!	!	!	!	!	!	!	!	!
!	!	!	!	!	!	!	!	!	!	!LO:SIC:v:t=custos a	!	!	!	!	!
2e\	-ta-	2e/	-ta-	2g/	-ta-	2cc#X\	-ta-	1r	.	1r	.	1r	.	1r	.
2e\	-tis	2e/	-tis	2g/	-tis	2cc#\	-tis	.	.	.	.	.	.	.	.
!	!	!	!	!	!	!	!	!	!	!LO:PB:g=original	!	!	!	!	!
=74-	=74-	=74-	=74-	=74-	=74-	=74-	=74-	=74-	=74-	=74-	=74-	=74-	=74-	=74-	=74-
1d	Ve-	1f	Ve-	1a	Ve-	0dd	Ves-	0.r	.	0.r	.	0.r	.	0.r	.
1g	.	1g	.	1b-	.	.	.	.	.	.	.	.	.	.	.
!	!	!	!	!	!	!LO:TX:t=P:problem:# above	!	!	!	!	!	!	!	!	!
1a	.	1e	-str(ae)	1a	.	1cc#X	.	.	.	.	.	.	.	.	.
=75-	=75-	=75-	=75-	=75-	=75-	=75-	=75-	=75-	=75-	=75-	=75-	=75-	=75-	=75-	=75-
1d	-str(ae).	1f	.	1a	-str(ae)	1dd	-tr(ae)	1d	ſo-	1a	ſo-	1dd	ſo-	1ff	ſo-
1r	.	1r	.	1r	.	1r	.	2c\	-len-	2e/	-len-	2a\	-len-	2ee\	-lem-
.	.	.	.	.	.	.	.	2c\	-ni-	2e/	-ni-	2a\	-ni-	2ee\	-ni-
1r	.	1r	.	1r	.	1r	.	2B-\	-ta-	2fny\	-ta-	2b-\	-ta-	2dd\	-ta-
.	.	.	.	.	.	.	.	2B-\	-tis	2f\	-tis	2b-\	-tis	2dd\	-tis
=76-	=76-	=76-	=76-	=76-	=76-	=76-	=76-	=76-	=76-	=76-	=76-	=76-	=76-	=76-	=76-
0.r	.	0.r	.	0.r	.	0.r	.	(>1F	Ve-	0d	Ve-	(>1dd	Ve-	(>1aa	Ve-
.	.	.	.	.	.	.	.	(>1G)	.	.	.	(>1b-)	.	(>1gg)	.
!	!	!	!	!	!	!	!	!	!	!LO:TX:t=P:problem:# below	!	!	!	!	!
!	!	!	!	!	!	!	!	!	!	!	!	!LO:SIC:v:t=custos a	!	!LO:SIC:v:t=custos ff	!
.	.	.	.	.	.	.	.	1A)	.	1c#X	.	1a)	.	1ee)	.
!	!	!	!	!	!	!	!	!	!	!	!	!LO:LB:g=original	!	!LO:LB:g=original	!
=77-	=77-	=77-	=77-	=77-	=77-	=77-	=77-	=77-	=77-	=77-	=77-	=77-	=77-	=77-	=77-
*M2/2	*	*M2/2	*	*M2/2	*	*M2/2	*	*M2/2	*	*M2/2	*	*M2/2	*	*M2/2	*
*met(c|)	*	*met(c|)	*	*met(c|)	*	*met(c|)	*	*met(c|)	*	*met(c|)	*	*met(c|)	*	*met(c|)	*
2r	.	2r	.	2r	.	2r	.	2D/	-str(ae)	2d/	-str(ae)	2a\	-str(ae).	2ff\	-str(ae)
4r	.	4r	.	4r	.	4r	.	4r	.	4r	.	4r	.	4r	.
2B-/	In	2d/	In	4b-\	In	2ff\	In	2B-\	in	2f\	in	2b-\	In	2dd\	In
=78-	=78-	=78-	=78-	=78-	=78-	=78-	=78-	=78-	=78-	=78-	=78-	=78-	=78-	=78-	=78-
.	.	.	.	2f/	in-	.	.	.	.	.	.	.	.	.	.
4F/	in-	4A/	in-	.	.	4ff\	in-	4A/	in-	4f\	in-	4cc\	in-	4ff\	in-
4.B-/	-si-	4.d/	-si-	4.f/	-si-	4.ff\	-si-	4.B-\	-ſi-	4.f\	-ſi-	4.b-\	-si-	4.dd\	-ſi-
!	!	!	!	!	!	!	!	!	!	!LO:TX:t=P:problem:kreska pseudotaktowa	!	!	!	!	!
8B-/	-gni	8B-/	-gni	8f/	-gni	8ff\	-gni	8B-\	-gni	8f\	-gni	8b-\	-gni	8dd\	-gni
=79-	=79-	=79-	=79-	=79-	=79-	=79-	=79-	=79-	=79-	=79	=79	=79-	=79-	=79-	=79-
4F/	di-	4c/	di-	4a\	di-	4ff\	di-	4F/	di-	4f\	di-	4a\	di-	4cc\	di-
!	!	!	!	!	!	!LO:SIC:v:t=custos ff	!	!LO:SIC:v:t=custos:jak oznaczenie łamania pięciolinii	!	!	!	!	!	!LO:TX:t=P:problem:w źródle nuta niewidoczna	!
4F/	-e	4c/	-e	4a\	-e	4ff\	-e	4F/	-e	4f\	-e	4a\	-e	4cc\yy	-e
!	!	!	!	!	!	!LO:PB:g=original	!	!LO:LB:g=original	!	!	!	!	!	!	!
4r	.	4r	.	4r	.	4r	.	4r	.	4r	.	4r	.	4r	.
*	*	*	*ij	*	*	*	*	*	*	*	*	*	*ij	*	*ij
2d\	In	2d/	In	2a\	in	2ff\	In	2d\	In	2a\	In	2dd\	In	2ff\	In
=80-	=80-	=80-	=80-	=80-	=80-	=80-	=80-	=80-	=80-	=80-	=80-	=80-	=80-	=80-	=80-
.	.	.	.	.	.	.	.	.	.	.	.	.	.	.	.
4A/	in-	4e/	in-	4a\	in-	4ee\	in-	4c#X\	in-	4a\	in-	4a\	in-	4aa\	in-
4.d\	-si-	4.f\	-si-	4.a\	-si-	4.dd\	-si-	4.d\	-ſi-	4.a\	-si-	4.dd\	-si-	4.ff\	-ſi-
!	!	!	!	!	!	!	!	!	!	!LO:TX:t=P:problem:kreska pseudotaktowa	!	!	!	!	!
!LO:SIC:v:t=custos A	!	!	!	!	!	!	!	!	!	!	!	!	!	!	!
8d\	-gni	8d/	-gni	8a\	-gni	8b-y/	-gni	8d\	-gni	8a\	-gni	8dd\	-gni	8ff\	-gni
!LO:LB:g=original	!	!	!	!	!	!	!	!	!	!	!	!	!	!	!
=81-	=81-	=81-	=81-	=81-	=81-	=81-	=81-	=81-	=81-	=81	=81	=81-	=81-	=81-	=81-
4A/	di-	4e/	di-	4a\	di-	4ccny\	di-	4A/	di-	4a\	di-	4cc\	di-	4ee\	di-
!	!	!	!	!	!	!	!	!	!	!LO:SIC:v:t=custos f	!	!	!	!	!
4A/	-e	4e/	-e	4a\	-e	4cc\	-e	4A/	-e	4a\	-e	4cc\	-e	4ee\	-e
*	*	*	*Xij	*	*	*	*	*	*	*	*	*	*Xij	*	*Xij
!	!	!	!	!	!	!	!	!	!	!LO:LB:g=original	!	!	!	!	!
8r	.	8r	.	8r	.	8r	.	8r	.	8r	.	8r	.	8r	.
8f\	ſo-	8c/	ſo-	8a\	ſo-	8ff\	ſo-	8F/	ſo-	8f\	ſo-	8cc\	ſo-	8aa\	ſo-
8f\	-len-	8c/	-len-	8a\	-len-	8ff\	-len-	8F/	-len-	8f\	-len-	8cc\	-len-	8aa\	-len-
8f\	-ni-	8c/	-ni-	8a\	-ni-	8ff\	-ni-	8F/	-ni-	8f\	-ni-	8cc\	-ni-	8aa\	-ni-
=82-	=82-	=82-	=82-	=82-	=82-	=82-	=82-	=82-	=82-	=82-	=82-	=82-	=82-	=82-	=82-
!	!	!LO:SIC:v:t=custos f	!	!	!	!	!	!	!	!	!	!	!	!	!
4f\	-ta-	4c/	-ta-	4a\	-ta-	4ff\	-ta-	4F/	-ta-	4f\	-ta-	4cc\	-ta-	4aa\	-ta-
!	!	!LO:LB:g=original	!	!	!	!	!	!	!	!	!	!	!	!	!
!	!	!	!	!LO:SIC:v:t=custos cc	!	!	!	!	!	!	!	!	!	!	!
4f\	-tis	4f\	-tis	4cc\	-tis.	4cc\	-tis	4A/	-tis	4f\	-tis	4cc\	-tis	4aa\	-tis
!	!	!	!	!LO:PB:g=original	!	!	!	!	!	!	!	!	!	!	!
!	!	!	!	!	!	!	!	!	!	!LO:TX:t=P:problem:kreska pseudotaktowa	!	!	!	!	!
2c/	Ve-	2g\	Ve-	2cc\	Ves-	2ee\	Ves-	2cny\	Ves-	2e/	Ves-	2cc\	Ves-	2gg\	Ves-
=83-	=83-	=83-	=83-	=83-	=83-	=83-	=83-	=83-	=83-	=83	=83	=83-	=83-	=83-	=83-
8f\	-str(ae)	8f,<\	-str(ae)	8a\	-tr(ae),	8cc,<\	-tr(ae)	8F,</	-tr(ae)	8f\	-tr(ae)	8cc\	-tr(ae)	8aa\	-tr(ae),
*	*	*	*	*	*	*	*ij	*	*ij	*	*	*	*	*	*
8f\	ſo-	8f\	ſo-	8a\	ſo-	8cc\	ſo-	8F/	ſo-	8a\	ſo-	8cc\	ſo-	8ff\	ſo-
!	!	!	!	!	!	!	!	!	!	!	!	!LO:SIC:v:t=custos cc	!	!	!
8f\	-len-	8f\	-len-	8a\	-len-	8cc\	-len-	8F/	-len-	8a\	-len-	8cc\	-len-	8ff\	-len-
!	!	!	!	!	!	!	!	!	!	!	!	!LO:LB:g=original	!	!	!
!	!	!	!	!	!	!	!	!	!	!	!	!	!	!LO:SIC:v:t=custos ff	!
8f\	-ni-	8f\	-ni-	8a\	-ni-	8a/	-ni-	8F/	-ni-	8a\	-ni-	8cc\	-ni-	8ff\	-ni-
!	!	!	!	!	!	!	!	!	!	!	!	!	!	!LO:LB:g=original	!
4f\	-ta-	4f\	-ta-	4cc\	-ta-	4.aa\	-ta-	4F/	-ta-	4a\	-ta-	4cc\	-ta-	4ff\	-ta-
!	!	!	!	!LO:TX:t=P:problem:w źródle nuta niewidoczna	!	!	!	!	!	!	!	!	!	!	!
4f\	-tis	4c/	-tis	4cc\yy	-tis	.	.	4G/	-tis	4a\	-tis	4cc\	-tis	4ff\	-tis
.	.	.	.	.	.	8ff\	-tis	.	.	.	.	.	.	.	.
=84-	=84-	=84-	=84-	=84-	=84-	=84-	=84-	=84-	=84-	=84-	=84-	=84-	=84-	=84-	=84-
!	!	!	!	!	!	!	!	!	!	!LO:TX:t=P:problem:kreska pseudotaktowa	!	!	!	!	!
1c	Ve-	8c/L	Ve-	1cc	Ves-	1gg	Ves-	1c	Ves-	1g	Ves-	4.cc\	Ve-	4.ff\	Ve-
.	.	8d/	.	.	.	.	.	.	.	.	.	.	.	.	.
.	.	8e/	.	.	.	.	.	.	.	.	.	.	.	.	.
!	!	!	!	!	!	!	!	!	!	!	!	!	!	!LO:TX:a:t=P:w źródle grupa szesnastek wygląda trochę jak grupa ósemek:problem	!
.	.	8f/J	.	.	.	.	.	.	.	.	.	16b-\LL	.	16ee\LL	.
.	.	.	.	.	.	.	.	.	.	.	.	16a\JJ	.	16dd\JJ	.
.	.	4g\	.	.	.	.	.	.	.	.	.	4g/	-str(ae)	2ee\	-str(ae)
.	.	2c/	-str(ae),	.	.	.	.	.	.	.	.	4cc\	ſo-	.	.
=85-	=85-	=85-	=85-	=85-	=85-	=85-	=85-	=85-	=85-	=85	=85	=85-	=85-	=85-	=85-
1F	-str(ae)	.	.	1cc	-tr(ae)	1aa	-tr(ae)	4.F,</	-tr(ae)	4.f\	-tr(ae),	4.a\	-len-	4.ff\	ſo-
*	*	*	*ij	*	*	*	*	*	*	*	*	*	*	*	*
.	.	4f\	ſo-	.	.	.	.	.	.	.	.	.	.	.	.
*	*	*	*	*	*	*	*	*	*Xij	*	*	*	*	*	*
.	.	.	.	.	.	.	.	8F/	ſo-	8f\	ſo-	8a\	-ni-	8cc\	-len-
.	.	2f\	-len-	.	.	.	.	4F/	-len-	4f\	-len-	4a\	-ta-	4cc\	-ni-
.	.	.	.	.	.	.	.	4F/	-ni-	4f\	-ni-	4a\	-tis	4cc\	-ta-
*	*	*	*	*	*	*	*Xij	*	*	*	*	*	*	*	*
=86-	=86-	=86-	=86-	=86-	=86-	=86-	=86-	=86-	=86-	=86-	=86-	=86-	=86-	=86-	=86-
2c/	ſo-	2g\	-ni-	2cc\	ſo-	2ee\	ſo-	2c\	-ta-	2e/	-ta-	2g/	Ve-	2cc\	-tis
!	!	!	!	!	!	!	!	!	!	!LO:TX:t=P:problem:kreska pseudotaktowa	!	!	!	!	!
4c/	-len-	4g\	-ta-	4cc\	-len-	4ee\	-len-	2c\	-tis	2e/	-tis,	2g/	-str(ae)	2cc\	Ve-
4c/	-ni-	4g\	-tis	4cc\	-ni-	4ee\	-ni-	.	.	.	.	.	.	.	.
=87-	=87-	=87-	=87-	=87-	=87-	=87-	=87-	=87-	=87-	=87	=87	=87-	=87-	=87-	=87-
!	!	!	!	!	!	!	!	!	!	!	!	!LO:TX:a:t=P:w źródle krzyżyk w roli kasownika:problem	!	!	!
!	!	!	!	!	!	!	!	!	!	!	!	!LO:N:acc=#	!	!	!
2G/	-ta-	2g\	Ve-	2b-\	-ta-	2dd\	-ta-	2G/	Ve-	2g\	ſo-	2bn\	ſo-	2dd\	-str(ae)
!	!	!	!	!	!	!LO:SIC:v:t=custos cc	!	!	!	!	!	!	!	!	!
2G/	-tis	2g,<\	-str(ae)	2b-\	-tis	2dd\	-tis	4G/	-str(ae)	4g\	-len-	4b\	-len-	4dd\	ſo-
!	!	!	!	!	!	!	!	!LO:SIC:v:t=custos c	!	!	!	!	!	!	!
.	.	.	.	.	.	.	.	4G/	ſo	4g\	-ni-	4b\	-ni-	4dd\	-len-
*	*	*	*Xij	*	*	*	*	*	*	*	*	*	*	*	*
!	!	!	!	!	!	!LO:LB:g=original	!	!LO:LB:g=original	!	!	!	!	!	!	!
=88-	=88-	=88-	=88-	=88-	=88-	=88-	=88-	=88-	=88-	=88-	=88-	=88-	=88-	=88-	=88-
!	!	!	!	!	!	!	!	!	!	!	!	!	!	!LO:TX:a:t=P:w źródle zawijas wskazujący na grupę ósemkową:problem	!
2c/	Ves-	2e/	ſo-	2g/	Ves-	2cc\	Ves-	8c\L	ta-	4g;>\	-ta-	2cc\	-ta-	8ee\L	-ni-
.	.	.	.	.	.	.	.	8d\	.	.	.	.	.	8ff\	.
.	.	.	.	.	.	.	.	8e\	.	8c/L	-tis	.	.	8gg\	-ta-
.	.	.	.	.	.	.	.	8d\J	.	8d/	.	.	.	8ff\J	.
4c/	-tr(ae)	4e/	-len-	4g/	-tr(ae)	4cc\	-tr(ae)	4.c\	.	8e/	.	4cc\	-tis	4ee\	.
.	.	.	.	.	.	.	.	.	.	8f/J	.	.	.	.	.
!	!	!	!	!	!	!	!	!	!	!LO:TX:t=P:problem:kreska pseudotaktowa	!	!	!	!	!
4c/	ſo-	4e/	-ni-	4g/	ſo-	4cc\	ſo-	.	.	4g\	Ve-	4cc\	ſo-	4ee\	-tis
.	.	.	.	.	.	.	.	16B-\LL	.	.	.	.	.	.	.
.	.	.	.	.	.	.	.	16A\JJ	.	.	.	.	.	.	.
=89-	=89-	=89-	=89-	=89-	=89-	=89-	=89-	=89-	=89-	=89	=89	=89-	=89-	=89-	=89-
!	!	!	!	!	!	!	!	!	!	!LO:SIC:v:t=custos f	!	!	!	!	!
8f\L	-len-	4f\	-ta-	8a\L	-len-	2.cc\	-len-	4G/	.	4f\	.	8cc\L	-len-	2aa\	Ves-
8g\	.	.	.	8b-\	.	.	.	.	.	.	.	8b-y\	.	.	.
!	!	!	!	!	!	!	!	!	!	!LO:LB:g=original	!	!	!	!	!
8a\	.	4.F/	-tis	8cc\	.	.	.	2F/	.	4f\	-str(ae)	8a\	.	.	.
8g\J	.	.	.	8b-\J	.	.	.	.	.	.	.	8b-\J	.	.	.
!LO:PB:g=original	!	!	!	!	!	!	!	!	!	!	!	!	!	!	!
4f\	.	.	.	4a\	.	.	.	.	.	4.c/	ſo-	2.cc\	-ni-	2aa\	-tr(ae)
.	.	8G/	.	.	.	.	.	.	.	.	.	.	.	.	.
4f\	-ni-	4A/	.	4f/	-ni-	4cc\	-ni-	4F/	-tis	.	.	.	.	.	.
!	!	!	!	!	!	!	!	!	!	!LO:TX:t=P:problem:kreska pseudotaktowa	!	!	!	!	!
.	.	.	.	.	.	.	.	.	.	8d/	-len-	.	.	.	.
=90-	=90-	=90-	=90-	=90-	=90-	=90-	=90-	=90-	=90-	=90	=90	=90-	=90-	=90-	=90-
4.e\	-ta-	2c/	.	2g/	-ta-	4.cc\	-ta-	1.c	Ve-	8e/L	-ni-	.	.	4.gg\	Ve-
.	.	.	.	.	.	.	.	.	.	8d/	.	.	.	.	.
.	.	.	.	.	.	.	.	.	.	8e/	.	4g/	-ta-	.	.
8d\	-tis	.	.	.	.	8dd\L	.	.	.	8f/J	.	.	.	8ff\	.
!	!	!	!	!	!	!	!	!	!	!	!	!	!	!LO:SIC:v:t=custos dd	!
2c/	Ve-	2c/	Ve-	2.g/	-tis	8ee\	.	.	.	4g\	-ta-	4g/	-tis	2ee\	.
.	.	.	.	.	.	8ff\J	.	.	.	.	.	.	.	.	.
!	!	!	!	!	!	!	!	!	!	!	!	!LO:SIC:v:t=custos g	!	!	!
.	.	.	.	.	.	4gg\	.	.	.	4c/	-tis	4g/	.	.	.
!	!	!	!	!	!	!	!	!	!	!	!	!LO:LB:g=original	!	!LO:LB:g=original	!
=91-	=91-	=91-	=91-	=91-	=91-	=91-	=91-	=91-	=91-	=91-	=91-	=91-	=91-	=91-	=91-
0g	.	1.d	-str(ae).	.	.	4ff\	.	.	.	0g	Ves-	0g	Ves-	0dd	.
.	.	.	.	4a\	Ve-	4ee\	-tis	.	.	.	.	.	.	.	.
!	!	!	!	!LO:TX:a:t=P:w źródle krzyżyk w roli kasownika:problem	!	!	!	!LO:TX:a:t=P:w źródle krzyżyk w roli kasownika:problem	!	!	!	!	!	!	!
!	!	!	!	!LO:TX:t=P:problem:# above	!	!	!	!LO:TX:t=P:problem:# above	!	!	!	!	!	!	!
!	!	!	!	!LO:N:acc=#	!	!	!	!LO:N:acc=#	!	!	!	!	!	!	!
.	.	.	.	4bn\	.	2dd\	Ves-	4Bn\	.	.	.	.	.	.	.
.	.	.	.	4cc\	.	.	.	4A\	.	.	.	.	.	.	.
=92-	=92-	=92-	=92-	=92-	=92-	=92-	=92-	=92-	=92-	=92-	=92-	=92-	=92-	=92-	=92-
!	!	!	!	!	!	!	!	!LO:TX:a:t=P:w źródle krzyżyk w roli kasownika:problem	!	!	!	!	!	!	!
!	!	!	!	!	!	!	!	!LO:TX:t=P:problem:# above	!	!	!	!	!	!	!
!	!	!	!	!	!	!	!	!LO:N:acc=#	!	!	!	!	!	!	!
.	.	.	.	1dd	-str(ae).	1gg	-tr(ae).	1Bn	-str(ae).	.	.	.	.	.	.
.	.	2g\	.	.	.	.	.	.	.	.	.	.	.	.	.
=93-	=93-	=93-	=93-	=93-	=93-	=93-	=93-	=93-	=93-	=93-	=93-	=93-	=93-	=93-	=93-
!!LO:TX:a:t=P:W każdym głosie ozdobna kreska końcowa:problem
!LO:TX:t=P:problem:w źródle ostatnia nuta ozdobnie zwielokrotniona	!	!	!	!	!	!	!	!	!	!	!	!	!	!	!
1cl;>	-str(ae)	1el;>	.	1ccl;>	.	1ggl;>	.	1cl;;	.	1cl;>	-tr(ae).	1gl;>	-tr(ae).	1eel;>	-stra
==	==	==	==	==	==	==	==	==	==	==	==	==	==	==	==
*-	*-	*-	*-	*-	*-	*-	*-	*-	*-	*-	*-	*-	*-	*-	*-
!!title: @{OTL};
!!!RDF**kern: > = above
!!!RDF**kern: < = below
!!!RDF**kern: | = vertical stroke
!!!RDF**kern: N = linked
!!!RDF**kern: i = editorial accidental
!!!RDF**kern: l = terminal long
!!!ENC: Mateusz Solarz
!!!END: 2021-10-15
!!!EED: Wojciech Jakubiak-Danek
!!!EST: 2021-11-02
!!!URL-scan: http://repozytorium.nifc.pl/skany/pl-sa-nut--l1643
!!!ONB-nifc: UWAGA: 8 ksiąg. Primi chori: 1mus Cantus (strona 86-87, księga 1 skan 0060), C 2dus (strona 85-86, księga 2 skan 0048-0049), C 3tius (strona 82-84, księga 3 skan 0036-0037), Bassus (strona 80-82, księga 4 skan 0044-0045); Secondi chori: Primus Cantus (strona 79-81, księga 5 skan 0040-0041), C 2dus (strona 82-84, księga 6 skan 0044-0045), Altus (strona 80-81, księga 7 skan 0044), Bassus (strona 81-83, księga 8 skan 0044-0045). UWAGA: Nie dodawać pustych linii, chyba że w rękopisie pojawiają się dodatkowe oznaczenia dotyczące pełnej obsady (a 4, a 8 itp.)
